( Made using CamBam - http://www.cambam.co.uk )
( Font 2/9/2018 8:24:06 PM )
( T0 : 3.2 )
G21 G90 G64 G40
G0 Z3.0
( T0 : 3.2 )
T0 M6
( Visses )
G17
M3 S250
G0 X10.6138 Y18.5567
G1 F100.0 Z-1.6
G1 F150.0 Y18.6824
G2 Y18.5567 I0.1362 J-0.0628
G1 F100.0 Z-3.2
G1 F150.0 Y18.6824
G2 Y18.5567 I0.1362 J-0.0628
G1 F100.0 Z-4.8
G1 F150.0 Y18.6824
G2 Y18.5567 I0.1362 J-0.0628
G1 F100.0 Z-5.5
G1 F150.0 Y18.6824
G2 Y18.5567 I0.1362 J-0.0628
G0 Z3.0
G0 X-10.6753 Y-18.4895
G1 F100.0 Z-1.6
G2 F150.0 X-10.8862 Y-18.6824 I-0.0747 J-0.1301
G1 Y-18.5567
G2 X-10.6753 Y-18.4895 I0.1362 J-0.0628
G1 F100.0 Z-3.2
G2 F150.0 X-10.8862 Y-18.6824 I-0.0747 J-0.1301
G1 Y-18.5567
G2 X-10.6753 Y-18.4895 I0.1362 J-0.0628
G1 F100.0 Z-4.8
G2 F150.0 X-10.8862 Y-18.6824 I-0.0747 J-0.1301
G1 Y-18.5567
G2 X-10.6753 Y-18.4895 I0.1362 J-0.0628
G1 F100.0 Z-5.5
G2 F150.0 X-10.8862 Y-18.6824 I-0.0747 J-0.1301
G1 Y-18.5567
G2 X-10.6753 Y-18.4895 I0.1362 J-0.0628
( BipBatBaro )
S250
G0 Z3.0
G0 X-0.5541 Y-21.0809
G1 F100.0 Z-1.6
G2 F150.0 X0.3762 Y-20.5852 I0.5541 J0.0809
G3 X0.6579 Y-20.8237 I3.6544 J4.0298
G3 X0.5332 Y-21.1712 I5.055 J-2.0102
G2 X-0.5541 Y-21.0809 I-0.5332 J0.1712
G1 F100.0 X-1.8207 Y-21.2659
G2 F150.0 X1.236 Y-19.637 I1.8207 J0.2659
G3 X2.3634 Y-20.3667 I2.7945 J3.0816
G3 X1.7519 Y-21.5624 I3.3494 J-2.4672
G2 X-1.8207 Y-21.2659 I-1.7519 J0.5624
G1 F100.0 X-3.0873 Y-21.4509
G2 F150.0 X2.0959 Y-18.6888 I3.0872 J0.4509
G3 X4.3587 Y-19.4166 I1.9347 J2.1334
G1 X4.5664 Y-20.1919
G3 X2.9707 Y-21.9536 I1.1464 J-2.642
G2 X-3.0872 Y-21.4509 I-2.9707 J0.9536
G1 X-3.0873
G1 F100.0 X-4.3538 Y-21.6358
G2 F150.0 X2.9557 Y-17.7406 I4.3538 J0.6358
G3 X4.4447 Y-18.1009 I1.0748 J1.1852
G1 X5.2719 Y-17.8792
G1 X6.126 Y-21.0667
G1 X5.2988 Y-21.2884
G3 X4.1894 Y-22.3449 I0.4141 J-1.5455
G2 X-4.3538 Y-21.6358 I-4.1894 J1.3449
G0 Z3.0
G0 X-0.5541 Y-21.0809
G1 F100.0 Z-3.2
G2 F150.0 X0.3762 Y-20.5852 I0.5541 J0.0809
G3 X0.6579 Y-20.8237 I3.6544 J4.0298
G3 X0.5332 Y-21.1712 I5.055 J-2.0102
G2 X-0.5541 Y-21.0809 I-0.5332 J0.1712
G1 F100.0 X-1.8207 Y-21.2659
G2 F150.0 X1.236 Y-19.637 I1.8207 J0.2659
G3 X2.3634 Y-20.3667 I2.7945 J3.0816
G3 X1.7519 Y-21.5624 I3.3494 J-2.4672
G2 X-1.8207 Y-21.2659 I-1.7519 J0.5624
G1 F100.0 X-3.0873 Y-21.4509
G2 F150.0 X2.0959 Y-18.6888 I3.0872 J0.4509
G3 X4.3587 Y-19.4166 I1.9347 J2.1334
G1 X4.5664 Y-20.1919
G3 X2.9707 Y-21.9536 I1.1464 J-2.642
G2 X-3.0872 Y-21.4509 I-2.9707 J0.9536
G1 X-3.0873
G1 F100.0 X-4.3538 Y-21.6358
G2 F150.0 X2.9557 Y-17.7406 I4.3538 J0.6358
G3 X4.4447 Y-18.1009 I1.0748 J1.1852
G1 X5.2719 Y-17.8792
G1 X6.126 Y-21.0667
G1 X5.2988 Y-21.2884
G3 X4.1894 Y-22.3449 I0.4141 J-1.5455
G2 X-4.3538 Y-21.6358 I-4.1894 J1.3449
G0 Z3.0
G0 X-0.5541 Y-21.0809
G1 F100.0 Z-4.5
G2 F150.0 X0.3762 Y-20.5852 I0.5541 J0.0809
G3 X0.6579 Y-20.8237 I3.6544 J4.0298
G3 X0.5332 Y-21.1712 I5.055 J-2.0102
G2 X-0.5541 Y-21.0809 I-0.5332 J0.1712
G1 F100.0 X-1.8207 Y-21.2659
G2 F150.0 X1.236 Y-19.637 I1.8207 J0.2659
G3 X2.3634 Y-20.3667 I2.7945 J3.0816
G3 X1.7519 Y-21.5624 I3.3494 J-2.4672
G2 X-1.8207 Y-21.2659 I-1.7519 J0.5624
G1 F100.0 X-3.0873 Y-21.4509
G2 F150.0 X2.0959 Y-18.6888 I3.0872 J0.4509
G3 X4.3587 Y-19.4166 I1.9347 J2.1334
G1 X4.5664 Y-20.1919
G3 X2.9707 Y-21.9536 I1.1464 J-2.642
G2 X-3.0872 Y-21.4509 I-2.9707 J0.9536
G1 X-3.0873
G1 F100.0 X-4.3538 Y-21.6358
G2 F150.0 X2.9557 Y-17.7406 I4.3538 J0.6358
G3 X4.4447 Y-18.1009 I1.0748 J1.1852
G1 X5.2719 Y-17.8792
G1 X6.126 Y-21.0667
G1 X5.2988 Y-21.2884
G3 X4.1894 Y-22.3449 I0.4141 J-1.5455
G2 X-4.3538 Y-21.6358 I-4.1894 J1.3449
G0 Z3.0
G0 Y-2.16
G1 F100.0 Z-1.6
G1 F150.0 X-12.16
G1 Y0.36
G1 X0.36
G1 Y-2.16
G1 X-4.3538
G1 F100.0 Y-3.44
G1 F150.0 X-13.44
G1 Y1.64
G1 X1.64
G1 Y-3.44
G1 X-4.3538
G1 F100.0 Y-4.72
G1 F150.0 X-14.72
G1 Y2.92
G1 X2.92
G1 Y-4.72
G1 X-4.3538
G1 F100.0 Y-6.0
G1 F150.0 X-16.0
G1 Y4.2
G1 X4.2
G1 Y-6.0
G1 X-4.3538
G1 F100.0 Y-7.28
G1 F150.0 X-17.28
G1 Y5.48
G1 X5.48
G1 Y-7.28
G1 X-4.3538
G1 F100.0 Y-8.56
G1 F150.0 X-18.56
G1 Y6.76
G1 X6.76
G1 Y-8.56
G1 X-4.3538
G1 F100.0 Y-9.84
G1 F150.0 X-19.84
G1 Y8.04
G1 X8.04
G1 Y-9.84
G1 X-4.3538
G1 F100.0 Y-11.12
G1 F150.0 X-21.12
G1 Y9.32
G1 X9.32
G1 Y-11.12
G1 X-4.3538
G1 F100.0 Y-12.4
G1 F150.0 X-22.4
G1 Y10.6
G1 X10.6
G1 Y-12.4
G1 X-4.3538
G0 Z3.0
G0 Y-2.16
G1 F100.0 Z-3.2
G1 F150.0 X-12.16
G1 Y0.36
G1 X0.36
G1 Y-2.16
G1 X-4.3538
G1 F100.0 Y-3.44
G1 F150.0 X-13.44
G1 Y1.64
G1 X1.64
G1 Y-3.44
G1 X-4.3538
G1 F100.0 Y-4.72
G1 F150.0 X-14.72
G1 Y2.92
G1 X2.92
G1 Y-4.72
G1 X-4.3538
G1 F100.0 Y-6.0
G1 F150.0 X-16.0
G1 Y4.2
G1 X4.2
G1 Y-6.0
G1 X-4.3538
G1 F100.0 Y-7.28
G1 F150.0 X-17.28
G1 Y5.48
G1 X5.48
G1 Y-7.28
G1 X-4.3538
G1 F100.0 Y-8.56
G1 F150.0 X-18.56
G1 Y6.76
G1 X6.76
G1 Y-8.56
G1 X-4.3538
G1 F100.0 Y-9.84
G1 F150.0 X-19.84
G1 Y8.04
G1 X8.04
G1 Y-9.84
G1 X-4.3538
G1 F100.0 Y-11.12
G1 F150.0 X-21.12
G1 Y9.32
G1 X9.32
G1 Y-11.12
G1 X-4.3538
G1 F100.0 Y-12.4
G1 F150.0 X-22.4
G1 Y10.6
G1 X10.6
G1 Y-12.4
G1 X-4.3538
G0 Z3.0
G0 Y-2.16
G1 F100.0 Z-4.5
G1 F150.0 X-12.16
G1 Y0.36
G1 X0.36
G1 Y-2.16
G1 X-4.3538
G1 F100.0 Y-3.44
G1 F150.0 X-13.44
G1 Y1.64
G1 X1.64
G1 Y-3.44
G1 X-4.3538
G1 F100.0 Y-4.72
G1 F150.0 X-14.72
G1 Y2.92
G1 X2.92
G1 Y-4.72
G1 X-4.3538
G1 F100.0 Y-6.0
G1 F150.0 X-16.0
G1 Y4.2
G1 X4.2
G1 Y-6.0
G1 X-4.3538
G1 F100.0 Y-7.28
G1 F150.0 X-17.28
G1 Y5.48
G1 X5.48
G1 Y-7.28
G1 X-4.3538
G1 F100.0 Y-8.56
G1 F150.0 X-18.56
G1 Y6.76
G1 X6.76
G1 Y-8.56
G1 X-4.3538
G1 F100.0 Y-9.84
G1 F150.0 X-19.84
G1 Y8.04
G1 X8.04
G1 Y-9.84
G1 X-4.3538
G1 F100.0 Y-11.12
G1 F150.0 X-21.12
G1 Y9.32
G1 X9.32
G1 Y-11.12
G1 X-4.3538
G1 F100.0 Y-12.4
G1 F150.0 X-22.4
G1 Y10.6
G1 X10.6
G1 Y-12.4
G1 X-4.3538
G0 Z3.0
G0 X-0.6428 Y17.36
G1 F100.0 Z-1.6
G3 F150.0 X0.7566 Y19.74 I-3.8072 J3.84
G1 X3.19
G1 Y17.36
G1 X-0.6428
G1 F100.0 Y16.08
G1 F150.0 X-4.47
G1 Y17.0726
G3 X-0.3265 Y21.02 I0.02 J4.1274
G1 X4.47
G1 Y16.08
G1 X-0.6428
G1 F100.0 Y14.8
G1 F150.0 X-5.75
G1 Y18.6638
G3 X-1.8208 Y22.3 I1.3 J2.5362
G1 X5.75
G1 Y14.8
G1 X-0.6428
G0 Z3.0
G0 Y17.36
G1 F100.0 Z-3.2
G3 F150.0 X0.7566 Y19.74 I-3.8072 J3.84
G1 X3.19
G1 Y17.36
G1 X-0.6428
G1 F100.0 Y16.08
G1 F150.0 X-4.47
G1 Y17.0726
G3 X-0.3265 Y21.02 I0.02 J4.1274
G1 X4.47
G1 Y16.08
G1 X-0.6428
G1 F100.0 Y14.8
G1 F150.0 X-5.75
G1 Y18.6638
G3 X-1.8208 Y22.3 I1.3 J2.5362
G1 X5.75
G1 Y14.8
G1 X-0.6428
G0 Z3.0
G0 Y17.36
G1 F100.0 Z-4.5
G3 F150.0 X0.7566 Y19.74 I-3.8072 J3.84
G1 X3.19
G1 Y17.36
G1 X-0.6428
G1 F100.0 Y16.08
G1 F150.0 X-4.47
G1 Y17.0726
G3 X-0.3265 Y21.02 I0.02 J4.1274
G1 X4.47
G1 Y16.08
G1 X-0.6428
G1 F100.0 Y14.8
G1 F150.0 X-5.75
G1 Y18.6638
G3 X-1.8208 Y22.3 I1.3 J2.5362
G1 X5.75
G1 Y14.8
G1 X-0.6428
( Transistor1 )
S250
G0 Z3.0
G0 X18.1 Y-10.9
G1 F100.0 Z-1.6
G1 F150.0 Y-12.4
G1 X16.6
G1 Y-10.9
G1 X18.1
G1 F100.0 Z-3.2
G1 F150.0 Y-12.4
G1 X16.6
G1 Y-10.9
G1 X18.1
G1 F100.0 Z-3.7
G1 F150.0 Y-12.4
G1 X16.6
G1 Y-10.9
G1 X18.1
( Transistor2 )
S250
G0 Z3.0
G0 X18.75 Y-6.4
G1 F100.0 Z-1.6
G1 F150.0 Y-7.7
G1 X15.95
G1 Y-6.4
G1 X18.75
G1 F100.0 Z-2.3
G1 F150.0 Y-7.7
G1 X15.95
G1 Y-6.4
G1 X18.75
G0 Z3.0
M5
M30
