( Made using CamBam - http://www.cambam.co.uk )
( Font 2/9/2018 6:38:48 PM )
( T0 : 1.6 )
G21 G90 G64 G40
G0 Z3.0
( T0 : 1.6 )
T0 M6
( Contour )
G17
M3 S280
G0 X25.8 Y-14.4338
G1 F100.0 Z-1.0
G1 F80.0 Y14.4338
G3 X25.4 Y15.1266 I-0.8 J0.0
G1 X15.6335 Y20.7653
G1 X14.5077 Y21.4153 Z6.1
G1 X13.3819 Y22.0653 Z-1.0
G1 X0.4 Y29.5603
G3 X-0.4 I-0.4 J-0.6928
G1 X-25.4 Y15.1266
G3 X-25.8 Y14.4338 I0.4 J-0.6928
G1 Y1.3
G1 Y0.0 Z6.1
G1 Y-1.3 Z-1.0
G1 Y-14.4338
G3 X-25.4 Y-15.1266 I0.8 J0.0
G1 X-0.4 Y-29.5603
G3 X0.4 I0.4 J0.6928
G1 X12.5158 Y-22.5653
G1 X13.6417 Y-21.9153 Z6.1
G1 X14.7675 Y-21.2653 Z-1.0
G1 X25.4 Y-15.1266
G3 X25.8 Y-14.4338 I-0.4 J0.6928
G1 F100.0 Z-2.0
G1 F80.0 Y14.4338
G3 X25.4 Y15.1266 I-0.8 J0.0
G1 X15.6335 Y20.7653
G1 X14.5077 Y21.4153 Z6.1
G1 X13.3819 Y22.0653 Z-2.0
G1 X0.4 Y29.5603
G3 X-0.4 I-0.4 J-0.6928
G1 X-25.4 Y15.1266
G3 X-25.8 Y14.4338 I0.4 J-0.6928
G1 Y1.3
G1 Y0.0 Z6.1
G1 Y-1.3 Z-2.0
G1 Y-14.4338
G3 X-25.4 Y-15.1266 I0.8 J0.0
G1 X-0.4 Y-29.5603
G3 X0.4 I0.4 J0.6928
G1 X12.5158 Y-22.5653
G1 X13.6417 Y-21.9153 Z6.1
G1 X14.7675 Y-21.2653 Z-2.0
G1 X25.4 Y-15.1266
G3 X25.8 Y-14.4338 I-0.4 J0.6928
G1 F100.0 Z-3.0
G1 F80.0 Y14.4338
G3 X25.4 Y15.1266 I-0.8 J0.0
G1 X15.6335 Y20.7653
G1 X14.5077 Y21.4153 Z6.1
G1 X13.3819 Y22.0653 Z-3.0
G1 X0.4 Y29.5603
G3 X-0.4 I-0.4 J-0.6928
G1 X-25.4 Y15.1266
G3 X-25.8 Y14.4338 I0.4 J-0.6928
G1 Y1.3
G1 Y0.0 Z6.1
G1 Y-1.3 Z-3.0
G1 Y-14.4338
G3 X-25.4 Y-15.1266 I0.8 J0.0
G1 X-0.4 Y-29.5603
G3 X0.4 I0.4 J0.6928
G1 X12.5158 Y-22.5653
G1 X13.6417 Y-21.9153 Z6.1
G1 X14.7675 Y-21.2653 Z-3.0
G1 X25.4 Y-15.1266
G3 X25.8 Y-14.4338 I-0.4 J0.6928
G1 F100.0 Z-4.0
G1 F80.0 Y14.4338
G3 X25.4 Y15.1266 I-0.8 J0.0
G1 X15.6335 Y20.7653
G1 X14.5077 Y21.4153 Z6.1
G1 X13.3819 Y22.0653 Z-4.0
G1 X0.4 Y29.5603
G3 X-0.4 I-0.4 J-0.6928
G1 X-25.4 Y15.1266
G3 X-25.8 Y14.4338 I0.4 J-0.6928
G1 Y1.3
G1 Y0.0 Z6.1
G1 Y-1.3 Z-4.0
G1 Y-14.4338
G3 X-25.4 Y-15.1266 I0.8 J0.0
G1 X-0.4 Y-29.5603
G3 X0.4 I0.4 J0.6928
G1 X12.5158 Y-22.5653
G1 X13.6417 Y-21.9153 Z6.1
G1 X14.7675 Y-21.2653 Z-4.0
G1 X25.4 Y-15.1266
G3 X25.8 Y-14.4338 I-0.4 J0.6928
G1 F100.0 Z-5.0
G1 F80.0 Y14.4338
G3 X25.4 Y15.1266 I-0.8 J0.0
G1 X15.6335 Y20.7653
G1 X14.5077 Y21.4153 Z6.1
G1 X13.3819 Y22.0653 Z-5.0
G1 X0.4 Y29.5603
G3 X-0.4 I-0.4 J-0.6928
G1 X-25.4 Y15.1266
G3 X-25.8 Y14.4338 I0.4 J-0.6928
G1 Y1.3
G1 Y0.0 Z6.1
G1 Y-1.3 Z-5.0
G1 Y-14.4338
G3 X-25.4 Y-15.1266 I0.8 J0.0
G1 X-0.4 Y-29.5603
G3 X0.4 I0.4 J0.6928
G1 X12.5158 Y-22.5653
G1 X13.6417 Y-21.9153 Z6.1
G1 X14.7675 Y-21.2653 Z-5.0
G1 X25.4 Y-15.1266
G3 X25.8 Y-14.4338 I-0.4 J0.6928
G1 F100.0 Z-5.1
G1 F80.0 Y14.4338
G3 X25.4 Y15.1266 I-0.8 J0.0
G1 X15.6335 Y20.7653
G1 X14.5077 Y21.4153 Z6.1
G1 X13.3819 Y22.0653 Z-5.1
G1 X0.4 Y29.5603
G3 X-0.4 I-0.4 J-0.6928
G1 X-25.4 Y15.1266
G3 X-25.8 Y14.4338 I0.4 J-0.6928
G1 Y1.3
G1 Y0.0 Z6.1
G1 Y-1.3 Z-5.1
G1 Y-14.4338
G3 X-25.4 Y-15.1266 I0.8 J0.0
G1 X-0.4 Y-29.5603
G3 X0.4 I0.4 J0.6928
G1 X12.5158 Y-22.5653
G1 X13.6417 Y-21.9153 Z6.1
G1 X14.7675 Y-21.2653 Z-5.1
G1 X25.4 Y-15.1266
G3 X25.8 Y-14.4338 I-0.4 J0.6928
G0 Z3.0
M5
M30
