( Made using CamBam - http://www.cambam.co.uk )
( Font 1/30/2018 5:05:36 PM )
( T0 : 0.5 )
G21 G90 G64 G40
G0 Z3.0
( T0 : 0.5 )
T0 M6
( Centrage )
G17
M3 S2500
G0 X0.0 Y0.0
G98
G81 X0.0 Y0.0 Z-5.5 R3.0 F100.0
G80
( TrouBaro )
S2500
G0 X-3.45 Y15.2989
G1 Z-4.3
G2 F200.0 X-3.4643 Y15.3351 I-0.05 J0.0011
G1 X-3.45 Y15.2989
G1 F100.0 X-3.2501 Y15.2943
G2 F200.0 X-3.2875 Y15.4317 I-0.2499 J0.0057
G1 X-3.2549 Y15.3495
G2 X-3.2501 Y15.2943 I-0.2451 J-0.0495
G1 F100.0 X-3.45 Y15.2989
G1 Z-4.6
G2 F200.0 X-3.4643 Y15.3351 I-0.05 J0.0011
G1 X-3.45 Y15.2989
G1 F100.0 X-3.2501 Y15.2943
G2 F200.0 X-3.2875 Y15.4317 I-0.2499 J0.0057
G1 X-3.2549 Y15.3495
G2 X-3.2501 Y15.2943 I-0.2451 J-0.0495
G1 F100.0 X-3.45 Y15.2989
G1 Z-4.9
G2 F200.0 X-3.4643 Y15.3351 I-0.05 J0.0011
G1 X-3.45 Y15.2989
G1 F100.0 X-3.2501 Y15.2943
G2 F200.0 X-3.2875 Y15.4317 I-0.2499 J0.0057
G1 X-3.2549 Y15.3495
G2 X-3.2501 Y15.2943 I-0.2451 J-0.0495
G1 F100.0 X-3.45 Y15.2989
G1 Z-5.2
G2 F200.0 X-3.4643 Y15.3351 I-0.05 J0.0011
G1 X-3.45 Y15.2989
G1 F100.0 X-3.2501 Y15.2943
G2 F200.0 X-3.2875 Y15.4317 I-0.2499 J0.0057
G1 X-3.2549 Y15.3495
G2 X-3.2501 Y15.2943 I-0.2451 J-0.0495
G1 F100.0 X-3.45 Y15.2989
G1 Z-5.5
G2 F200.0 X-3.4643 Y15.3351 I-0.05 J0.0011
G1 X-3.45 Y15.2989
G1 F100.0 X-3.2501 Y15.2943
G2 F200.0 X-3.2875 Y15.4317 I-0.2499 J0.0057
G1 X-3.2549 Y15.3495
G2 X-3.2501 Y15.2943 I-0.2451 J-0.0495
( BarroTige )
S2500
G0 Z3.0
G0 X-6.5 Y19.85
G1 F100.0 Z-0.3
G1 F200.0 Y20.7465
G3 X-6.058 Y19.85 I2.05 J0.4535
G1 X-6.5
G0 Z3.0
G0 X-6.3 Y22.5658
G1 F100.0 Z-0.3
G1 F200.0 Y22.85
G1 X-6.0517
G3 X-6.3 Y22.5658 I1.6017 J-1.65
G1 F100.0 X-6.5
G1 F200.0 Y23.05
G1 X-5.4428
G3 X-6.5 Y21.6535 I0.9929 J-1.85
G1 Y22.5658
G0 Z3.0
G0 X-3.4571 Y23.05
G1 F100.0 Z-0.3
G1 F200.0 X-2.85
G1 Y22.5531
G1 X-2.8514 Y22.5551
G3 X-2.9195 Y22.6373 I-0.6873 J-0.4994
G3 X-3.4571 Y23.05 I-1.5305 J-1.4373
G1 F100.0 X-3.5517 Y22.8738
G3 F200.0 X-5.5481 Y19.65 I-0.8983 J-1.6738
G1 X-6.7
G1 Y23.25
G1 X-2.65
G1 Y21.807
G3 X-2.7854 Y22.1151 I-1.8 J-0.607
G3 X-2.8291 Y22.184 I-0.5692 J-0.3129
G1 X-3.0133 Y22.4375
G3 X-3.0653 Y22.5004 I-0.5255 J-0.3818
G3 X-3.5517 Y22.8738 I-1.3847 J-1.3004
G0 Z3.0
G0 X-2.65 Y20.593
G1 F100.0 Z-0.3
G1 F200.0 Y19.65
G1 X-3.3519
G3 X-2.65 Y20.593 I-1.0981 J1.55
G1 F100.0 X-2.8395 Y20.6569
G3 F200.0 X-2.9606 Y22.0188 I-1.6105 J0.5431
G3 X-2.9909 Y22.0665 I-0.394 J-0.2166
G1 X-3.1751 Y22.32
G3 X-3.211 Y22.3635 I-0.3637 J-0.2643
G3 X-2.8395 Y20.6569 I-1.2389 J-1.1634
G1 F100.0 X-3.0286 Y20.7207
G3 F200.0 X-3.1355 Y21.9226 I-1.4213 J0.4793
G3 X-3.1524 Y21.9491 I-0.2191 J-0.1204
G1 X-3.3365 Y22.2026
G3 X-3.3565 Y22.2268 I-0.2023 J-0.1469
G3 X-3.0286 Y20.7207 I-1.0934 J-1.0268
G0 Z3.0
G0 X-2.45
G1 F100.0 Z-0.3
G1 F200.0 Y19.45
G1 X-6.9
G1 Y23.45
G1 X-2.45
G1 Y20.7207
G1 F100.0 X-2.25
G1 F200.0 Y19.25
G1 X-7.1
G1 Y23.65
G1 X-2.25
G1 Y20.7207
G0 Z3.0
G0 X-2.65 Y20.593
G1 F100.0 Z-0.6
G1 F200.0 Y19.65
G1 X-3.3519
G3 X-2.65 Y20.593 I-1.0981 J1.55
G0 Z3.0
G0 X-2.85 Y22.5531
G1 F100.0 Z-0.6
G1 F200.0 X-2.8514 Y22.5551
G3 X-2.9195 Y22.6373 I-0.6873 J-0.4994
G3 X-3.4571 Y23.05 I-1.5305 J-1.4373
G1 X-2.85
G1 Y22.5531
G0 Z3.0
G0 X-6.0517 Y22.85
G1 F100.0 Z-0.6
G3 F200.0 X-6.3 Y22.5658 I1.6017 J-1.65
G1 Y22.85
G1 X-6.0517
G1 F100.0 Y23.05
G1 F200.0 X-5.4428
G3 X-6.5 Y21.6535 I0.9929 J-1.85
G1 Y23.05
G1 X-6.0517
G0 Z3.0
G0 X-6.5 Y20.7465
G1 F100.0 Z-0.6
G3 F200.0 X-6.058 Y19.85 I2.05 J0.4535
G1 X-6.5
G1 Y20.7465
G1 F100.0 X-6.3047 Y20.7897
G3 F200.0 X-5.5481 Y19.65 I1.8547 J0.4103
G1 X-6.7
G1 Y23.25
G1 X-2.65
G1 Y21.807
G3 X-2.7854 Y22.1151 I-1.8 J-0.607
G3 X-2.8291 Y22.184 I-0.5692 J-0.3129
G1 X-3.0133 Y22.4375
G3 X-3.0653 Y22.5004 I-0.5255 J-0.3818
G3 X-6.3047 Y20.7897 I-1.3847 J-1.3004
G1 F100.0 X-6.1094 Y20.8329
G3 F200.0 X-2.9606 Y22.0188 I1.6595 J0.3671
G3 X-2.9909 Y22.0665 I-0.394 J-0.2166
G1 X-3.1751 Y22.32
G3 X-3.211 Y22.3635 I-0.3637 J-0.2643
G3 X-6.1094 Y20.8329 I-1.2389 J-1.1634
G1 F100.0 X-5.9146 Y20.876
G3 F200.0 X-3.1355 Y21.9226 I1.4646 J0.324
G3 X-3.1524 Y21.9491 I-0.2191 J-0.1204
G1 X-3.3365 Y22.2026
G3 X-3.3565 Y22.2268 I-0.2023 J-0.1469
G3 X-5.9146 Y20.876 I-1.0934 J-1.0268
G0 Z3.0
G0 X-6.9
G1 F100.0 Z-0.6
G1 F200.0 Y23.45
G1 X-2.45
G1 Y19.45
G1 X-6.9
G1 Y20.876
G1 F100.0 X-7.1
G1 F200.0 Y23.65
G1 X-2.25
G1 Y19.25
G1 X-7.1
G1 Y20.876
G0 Z3.0
G0 X-6.5 Y20.7465
G1 F100.0 Z-0.9
G3 F200.0 X-6.058 Y19.85 I2.05 J0.4535
G1 X-6.5
G1 Y20.7465
G0 Z3.0
G0 X-6.3 Y22.5658
G1 F100.0 Z-0.9
G1 F200.0 Y22.85
G1 X-6.0517
G3 X-6.3 Y22.5658 I1.6017 J-1.65
G1 F100.0 X-6.5
G1 F200.0 Y23.05
G1 X-5.4428
G3 X-6.5 Y21.6535 I0.9929 J-1.85
G1 Y22.5658
G0 Z3.0
G0 X-3.4571 Y23.05
G1 F100.0 Z-0.9
G1 F200.0 X-2.85
G1 Y22.5531
G1 X-2.8514 Y22.5551
G3 X-2.9195 Y22.6373 I-0.6873 J-0.4994
G3 X-3.4571 Y23.05 I-1.5305 J-1.4373
G1 F100.0 X-3.5517 Y22.8738
G3 F200.0 X-5.5481 Y19.65 I-0.8983 J-1.6738
G1 X-6.7
G1 Y23.25
G1 X-2.65
G1 Y21.807
G3 X-2.7854 Y22.1151 I-1.8 J-0.607
G3 X-2.8291 Y22.184 I-0.5692 J-0.3129
G1 X-3.0133 Y22.4375
G3 X-3.0653 Y22.5004 I-0.5255 J-0.3818
G3 X-3.5517 Y22.8738 I-1.3847 J-1.3004
G0 Z3.0
G0 X-2.65 Y20.593
G1 F100.0 Z-0.9
G1 F200.0 Y19.65
G1 X-3.3519
G3 X-2.65 Y20.593 I-1.0981 J1.55
G1 F100.0 X-2.8395 Y20.6569
G3 F200.0 X-2.9606 Y22.0188 I-1.6105 J0.5431
G3 X-2.9909 Y22.0665 I-0.394 J-0.2166
G1 X-3.1751 Y22.32
G3 X-3.211 Y22.3635 I-0.3637 J-0.2643
G3 X-2.8395 Y20.6569 I-1.2389 J-1.1634
G1 F100.0 X-3.0286 Y20.7207
G3 F200.0 X-3.1355 Y21.9226 I-1.4213 J0.4793
G3 X-3.1524 Y21.9491 I-0.2191 J-0.1204
G1 X-3.3365 Y22.2026
G3 X-3.3565 Y22.2268 I-0.2023 J-0.1469
G3 X-3.0286 Y20.7207 I-1.0934 J-1.0268
G0 Z3.0
G0 X-2.45
G1 F100.0 Z-0.9
G1 F200.0 Y19.45
G1 X-6.9
G1 Y23.45
G1 X-2.45
G1 Y20.7207
G1 F100.0 X-2.25
G1 F200.0 Y19.25
G1 X-7.1
G1 Y23.65
G1 X-2.25
G1 Y20.7207
G0 Z3.0
G0 X-2.65 Y20.593
G1 F100.0 Z-1.2
G1 F200.0 Y19.65
G1 X-3.3519
G3 X-2.65 Y20.593 I-1.0981 J1.55
G0 Z3.0
G0 X-2.85 Y22.5531
G1 F100.0 Z-1.2
G1 F200.0 X-2.8514 Y22.5551
G3 X-2.9195 Y22.6373 I-0.6873 J-0.4994
G3 X-3.4571 Y23.05 I-1.5305 J-1.4373
G1 X-2.85
G1 Y22.5531
G0 Z3.0
G0 X-6.0517 Y22.85
G1 F100.0 Z-1.2
G3 F200.0 X-6.3 Y22.5658 I1.6017 J-1.65
G1 Y22.85
G1 X-6.0517
G1 F100.0 Y23.05
G1 F200.0 X-5.4428
G3 X-6.5 Y21.6535 I0.9929 J-1.85
G1 Y23.05
G1 X-6.0517
G0 Z3.0
G0 X-6.5 Y20.7465
G1 F100.0 Z-1.2
G3 F200.0 X-6.058 Y19.85 I2.05 J0.4535
G1 X-6.5
G1 Y20.7465
G1 F100.0 X-6.3047 Y20.7897
G3 F200.0 X-5.5481 Y19.65 I1.8547 J0.4103
G1 X-6.7
G1 Y23.25
G1 X-2.65
G1 Y21.807
G3 X-2.7854 Y22.1151 I-1.8 J-0.607
G3 X-2.8291 Y22.184 I-0.5692 J-0.3129
G1 X-3.0133 Y22.4375
G3 X-3.0653 Y22.5004 I-0.5255 J-0.3818
G3 X-6.3047 Y20.7897 I-1.3847 J-1.3004
G1 F100.0 X-6.1094 Y20.8329
G3 F200.0 X-2.9606 Y22.0188 I1.6595 J0.3671
G3 X-2.9909 Y22.0665 I-0.394 J-0.2166
G1 X-3.1751 Y22.32
G3 X-3.211 Y22.3635 I-0.3637 J-0.2643
G3 X-6.1094 Y20.8329 I-1.2389 J-1.1634
G1 F100.0 X-5.9146 Y20.876
G3 F200.0 X-3.1355 Y21.9226 I1.4646 J0.324
G3 X-3.1524 Y21.9491 I-0.2191 J-0.1204
G1 X-3.3365 Y22.2026
G3 X-3.3565 Y22.2268 I-0.2023 J-0.1469
G3 X-5.9146 Y20.876 I-1.0934 J-1.0268
G0 Z3.0
G0 X-6.9
G1 F100.0 Z-1.2
G1 F200.0 Y23.45
G1 X-2.45
G1 Y19.45
G1 X-6.9
G1 Y20.876
G1 F100.0 X-7.1
G1 F200.0 Y23.65
G1 X-2.25
G1 Y19.25
G1 X-7.1
G1 Y20.876
G0 Z3.0
G0 X-6.5 Y20.7465
G1 F100.0 Z-1.5
G3 F200.0 X-6.058 Y19.85 I2.05 J0.4535
G1 X-6.5
G1 Y20.7465
G0 Z3.0
G0 X-6.3 Y22.5658
G1 F100.0 Z-1.5
G1 F200.0 Y22.85
G1 X-6.0517
G3 X-6.3 Y22.5658 I1.6017 J-1.65
G1 F100.0 X-6.5
G1 F200.0 Y23.05
G1 X-5.4428
G3 X-6.5 Y21.6535 I0.9929 J-1.85
G1 Y22.5658
G0 Z3.0
G0 X-3.4571 Y23.05
G1 F100.0 Z-1.5
G1 F200.0 X-2.85
G1 Y22.5531
G1 X-2.8514 Y22.5551
G3 X-2.9195 Y22.6373 I-0.6873 J-0.4994
G3 X-3.4571 Y23.05 I-1.5305 J-1.4373
G1 F100.0 X-3.5517 Y22.8738
G3 F200.0 X-5.5481 Y19.65 I-0.8983 J-1.6738
G1 X-6.7
G1 Y23.25
G1 X-2.65
G1 Y21.807
G3 X-2.7854 Y22.1151 I-1.8 J-0.607
G3 X-2.8291 Y22.184 I-0.5692 J-0.3129
G1 X-3.0133 Y22.4375
G3 X-3.0653 Y22.5004 I-0.5255 J-0.3818
G3 X-3.5517 Y22.8738 I-1.3847 J-1.3004
G0 Z3.0
G0 X-2.65 Y20.593
G1 F100.0 Z-1.5
G1 F200.0 Y19.65
G1 X-3.3519
G3 X-2.65 Y20.593 I-1.0981 J1.55
G1 F100.0 X-2.8395 Y20.6569
G3 F200.0 X-2.9606 Y22.0188 I-1.6105 J0.5431
G3 X-2.9909 Y22.0665 I-0.394 J-0.2166
G1 X-3.1751 Y22.32
G3 X-3.211 Y22.3635 I-0.3637 J-0.2643
G3 X-2.8395 Y20.6569 I-1.2389 J-1.1634
G1 F100.0 X-3.0286 Y20.7207
G3 F200.0 X-3.1355 Y21.9226 I-1.4213 J0.4793
G3 X-3.1524 Y21.9491 I-0.2191 J-0.1204
G1 X-3.3365 Y22.2026
G3 X-3.3565 Y22.2268 I-0.2023 J-0.1469
G3 X-3.0286 Y20.7207 I-1.0934 J-1.0268
G0 Z3.0
G0 X-2.45
G1 F100.0 Z-1.5
G1 F200.0 Y19.45
G1 X-6.9
G1 Y23.45
G1 X-2.45
G1 Y20.7207
G1 F100.0 X-2.25
G1 F200.0 Y19.25
G1 X-7.1
G1 Y23.65
G1 X-2.25
G1 Y20.7207
G0 Z3.0
G0 X-2.65 Y20.593
G1 F100.0 Z-1.8
G1 F200.0 Y19.65
G1 X-3.3519
G3 X-2.65 Y20.593 I-1.0981 J1.55
G0 Z3.0
G0 X-2.85 Y22.5531
G1 F100.0 Z-1.8
G1 F200.0 X-2.8514 Y22.5551
G3 X-2.9195 Y22.6373 I-0.6873 J-0.4994
G3 X-3.4571 Y23.05 I-1.5305 J-1.4373
G1 X-2.85
G1 Y22.5531
G0 Z3.0
G0 X-6.0517 Y22.85
G1 F100.0 Z-1.8
G3 F200.0 X-6.3 Y22.5658 I1.6017 J-1.65
G1 Y22.85
G1 X-6.0517
G1 F100.0 Y23.05
G1 F200.0 X-5.4428
G3 X-6.5 Y21.6535 I0.9929 J-1.85
G1 Y23.05
G1 X-6.0517
G0 Z3.0
G0 X-6.5 Y20.7465
G1 F100.0 Z-1.8
G3 F200.0 X-6.058 Y19.85 I2.05 J0.4535
G1 X-6.5
G1 Y20.7465
G1 F100.0 X-6.3047 Y20.7897
G3 F200.0 X-5.5481 Y19.65 I1.8547 J0.4103
G1 X-6.7
G1 Y23.25
G1 X-2.65
G1 Y21.807
G3 X-2.7854 Y22.1151 I-1.8 J-0.607
G3 X-2.8291 Y22.184 I-0.5692 J-0.3129
G1 X-3.0133 Y22.4375
G3 X-3.0653 Y22.5004 I-0.5255 J-0.3818
G3 X-6.3047 Y20.7897 I-1.3847 J-1.3004
G1 F100.0 X-6.1094 Y20.8329
G3 F200.0 X-2.9606 Y22.0188 I1.6595 J0.3671
G3 X-2.9909 Y22.0665 I-0.394 J-0.2166
G1 X-3.1751 Y22.32
G3 X-3.211 Y22.3635 I-0.3637 J-0.2643
G3 X-6.1094 Y20.8329 I-1.2389 J-1.1634
G1 F100.0 X-5.9146 Y20.876
G3 F200.0 X-3.1355 Y21.9226 I1.4646 J0.324
G3 X-3.1524 Y21.9491 I-0.2191 J-0.1204
G1 X-3.3365 Y22.2026
G3 X-3.3565 Y22.2268 I-0.2023 J-0.1469
G3 X-5.9146 Y20.876 I-1.0934 J-1.0268
G0 Z3.0
G0 X-6.9
G1 F100.0 Z-1.8
G1 F200.0 Y23.45
G1 X-2.45
G1 Y19.45
G1 X-6.9
G1 Y20.876
G1 F100.0 X-7.1
G1 F200.0 Y23.65
G1 X-2.25
G1 Y19.25
G1 X-7.1
G1 Y20.876
G0 Z3.0
G0 X-6.5 Y20.7465
G1 F100.0 Z-2.1
G3 F200.0 X-6.058 Y19.85 I2.05 J0.4535
G1 X-6.5
G1 Y20.7465
G0 Z3.0
G0 X-6.3 Y22.5658
G1 F100.0 Z-2.1
G1 F200.0 Y22.85
G1 X-6.0517
G3 X-6.3 Y22.5658 I1.6017 J-1.65
G1 F100.0 X-6.5
G1 F200.0 Y23.05
G1 X-5.4428
G3 X-6.5 Y21.6535 I0.9929 J-1.85
G1 Y22.5658
G0 Z3.0
G0 X-3.4571 Y23.05
G1 F100.0 Z-2.1
G1 F200.0 X-2.85
G1 Y22.5531
G1 X-2.8514 Y22.5551
G3 X-2.9195 Y22.6373 I-0.6873 J-0.4994
G3 X-3.4571 Y23.05 I-1.5305 J-1.4373
G1 F100.0 X-3.5517 Y22.8738
G3 F200.0 X-5.5481 Y19.65 I-0.8983 J-1.6738
G1 X-6.7
G1 Y23.25
G1 X-2.65
G1 Y21.807
G3 X-2.7854 Y22.1151 I-1.8 J-0.607
G3 X-2.8291 Y22.184 I-0.5692 J-0.3129
G1 X-3.0133 Y22.4375
G3 X-3.0653 Y22.5004 I-0.5255 J-0.3818
G3 X-3.5517 Y22.8738 I-1.3847 J-1.3004
G0 Z3.0
G0 X-2.65 Y20.593
G1 F100.0 Z-2.1
G1 F200.0 Y19.65
G1 X-3.3519
G3 X-2.65 Y20.593 I-1.0981 J1.55
G1 F100.0 X-2.8395 Y20.6569
G3 F200.0 X-2.9606 Y22.0188 I-1.6105 J0.5431
G3 X-2.9909 Y22.0665 I-0.394 J-0.2166
G1 X-3.1751 Y22.32
G3 X-3.211 Y22.3635 I-0.3637 J-0.2643
G3 X-2.8395 Y20.6569 I-1.2389 J-1.1634
G1 F100.0 X-3.0286 Y20.7207
G3 F200.0 X-3.1355 Y21.9226 I-1.4213 J0.4793
G3 X-3.1524 Y21.9491 I-0.2191 J-0.1204
G1 X-3.3365 Y22.2026
G3 X-3.3565 Y22.2268 I-0.2023 J-0.1469
G3 X-3.0286 Y20.7207 I-1.0934 J-1.0268
G0 Z3.0
G0 X-2.45
G1 F100.0 Z-2.1
G1 F200.0 Y19.45
G1 X-6.9
G1 Y23.45
G1 X-2.45
G1 Y20.7207
G1 F100.0 X-2.25
G1 F200.0 Y19.25
G1 X-7.1
G1 Y23.65
G1 X-2.25
G1 Y20.7207
G0 Z3.0
G0 X-2.65 Y20.593
G1 F100.0 Z-2.4
G1 F200.0 Y19.65
G1 X-3.3519
G3 X-2.65 Y20.593 I-1.0981 J1.55
G0 Z3.0
G0 X-2.85 Y22.5531
G1 F100.0 Z-2.4
G1 F200.0 X-2.8514 Y22.5551
G3 X-2.9195 Y22.6373 I-0.6873 J-0.4994
G3 X-3.4571 Y23.05 I-1.5305 J-1.4373
G1 X-2.85
G1 Y22.5531
G0 Z3.0
G0 X-6.0517 Y22.85
G1 F100.0 Z-2.4
G3 F200.0 X-6.3 Y22.5658 I1.6017 J-1.65
G1 Y22.85
G1 X-6.0517
G1 F100.0 Y23.05
G1 F200.0 X-5.4428
G3 X-6.5 Y21.6535 I0.9929 J-1.85
G1 Y23.05
G1 X-6.0517
G0 Z3.0
G0 X-6.5 Y20.7465
G1 F100.0 Z-2.4
G3 F200.0 X-6.058 Y19.85 I2.05 J0.4535
G1 X-6.5
G1 Y20.7465
G1 F100.0 X-6.3047 Y20.7897
G3 F200.0 X-5.5481 Y19.65 I1.8547 J0.4103
G1 X-6.7
G1 Y23.25
G1 X-2.65
G1 Y21.807
G3 X-2.7854 Y22.1151 I-1.8 J-0.607
G3 X-2.8291 Y22.184 I-0.5692 J-0.3129
G1 X-3.0133 Y22.4375
G3 X-3.0653 Y22.5004 I-0.5255 J-0.3818
G3 X-6.3047 Y20.7897 I-1.3847 J-1.3004
G1 F100.0 X-6.1094 Y20.8329
G3 F200.0 X-2.9606 Y22.0188 I1.6595 J0.3671
G3 X-2.9909 Y22.0665 I-0.394 J-0.2166
G1 X-3.1751 Y22.32
G3 X-3.211 Y22.3635 I-0.3637 J-0.2643
G3 X-6.1094 Y20.8329 I-1.2389 J-1.1634
G1 F100.0 X-5.9146 Y20.876
G3 F200.0 X-3.1355 Y21.9226 I1.4646 J0.324
G3 X-3.1524 Y21.9491 I-0.2191 J-0.1204
G1 X-3.3365 Y22.2026
G3 X-3.3565 Y22.2268 I-0.2023 J-0.1469
G3 X-5.9146 Y20.876 I-1.0934 J-1.0268
G0 Z3.0
G0 X-6.9
G1 F100.0 Z-2.4
G1 F200.0 Y23.45
G1 X-2.45
G1 Y19.45
G1 X-6.9
G1 Y20.876
G1 F100.0 X-7.1
G1 F200.0 Y23.65
G1 X-2.25
G1 Y19.25
G1 X-7.1
G1 Y20.876
G0 Z3.0
G0 X-6.5 Y20.7465
G1 F100.0 Z-2.7
G3 F200.0 X-6.058 Y19.85 I2.05 J0.4535
G1 X-6.5
G1 Y20.7465
G0 Z3.0
G0 X-6.3 Y22.5658
G1 F100.0 Z-2.7
G1 F200.0 Y22.85
G1 X-6.0517
G3 X-6.3 Y22.5658 I1.6017 J-1.65
G1 F100.0 X-6.5
G1 F200.0 Y23.05
G1 X-5.4428
G3 X-6.5 Y21.6535 I0.9929 J-1.85
G1 Y22.5658
G0 Z3.0
G0 X-3.4571 Y23.05
G1 F100.0 Z-2.7
G1 F200.0 X-2.85
G1 Y22.5531
G1 X-2.8514 Y22.5551
G3 X-2.9195 Y22.6373 I-0.6873 J-0.4994
G3 X-3.4571 Y23.05 I-1.5305 J-1.4373
G1 F100.0 X-3.5517 Y22.8738
G3 F200.0 X-5.5481 Y19.65 I-0.8983 J-1.6738
G1 X-6.7
G1 Y23.25
G1 X-2.65
G1 Y21.807
G3 X-2.7854 Y22.1151 I-1.8 J-0.607
G3 X-2.8291 Y22.184 I-0.5692 J-0.3129
G1 X-3.0133 Y22.4375
G3 X-3.0653 Y22.5004 I-0.5255 J-0.3818
G3 X-3.5517 Y22.8738 I-1.3847 J-1.3004
G0 Z3.0
G0 X-2.65 Y20.593
G1 F100.0 Z-2.7
G1 F200.0 Y19.65
G1 X-3.3519
G3 X-2.65 Y20.593 I-1.0981 J1.55
G1 F100.0 X-2.8395 Y20.6569
G3 F200.0 X-2.9606 Y22.0188 I-1.6105 J0.5431
G3 X-2.9909 Y22.0665 I-0.394 J-0.2166
G1 X-3.1751 Y22.32
G3 X-3.211 Y22.3635 I-0.3637 J-0.2643
G3 X-2.8395 Y20.6569 I-1.2389 J-1.1634
G1 F100.0 X-3.0286 Y20.7207
G3 F200.0 X-3.1355 Y21.9226 I-1.4213 J0.4793
G3 X-3.1524 Y21.9491 I-0.2191 J-0.1204
G1 X-3.3365 Y22.2026
G3 X-3.3565 Y22.2268 I-0.2023 J-0.1469
G3 X-3.0286 Y20.7207 I-1.0934 J-1.0268
G0 Z3.0
G0 X-2.45
G1 F100.0 Z-2.7
G1 F200.0 Y19.45
G1 X-6.9
G1 Y23.45
G1 X-2.45
G1 Y20.7207
G1 F100.0 X-2.25
G1 F200.0 Y19.25
G1 X-7.1
G1 Y23.65
G1 X-2.25
G1 Y20.7207
G0 Z3.0
G0 X-2.65 Y20.593
G1 F100.0 Z-3.0
G1 F200.0 Y19.65
G1 X-3.3519
G3 X-2.65 Y20.593 I-1.0981 J1.55
G0 Z3.0
G0 X-2.85 Y22.5531
G1 F100.0 Z-3.0
G1 F200.0 X-2.8514 Y22.5551
G3 X-2.9195 Y22.6373 I-0.6873 J-0.4994
G3 X-3.4571 Y23.05 I-1.5305 J-1.4373
G1 X-2.85
G1 Y22.5531
G0 Z3.0
G0 X-6.0517 Y22.85
G1 F100.0 Z-3.0
G3 F200.0 X-6.3 Y22.5658 I1.6017 J-1.65
G1 Y22.85
G1 X-6.0517
G1 F100.0 Y23.05
G1 F200.0 X-5.4428
G3 X-6.5 Y21.6535 I0.9929 J-1.85
G1 Y23.05
G1 X-6.0517
G0 Z3.0
G0 X-6.5 Y20.7465
G1 F100.0 Z-3.0
G3 F200.0 X-6.058 Y19.85 I2.05 J0.4535
G1 X-6.5
G1 Y20.7465
G1 F100.0 X-6.3047 Y20.7897
G3 F200.0 X-5.5481 Y19.65 I1.8547 J0.4103
G1 X-6.7
G1 Y23.25
G1 X-2.65
G1 Y21.807
G3 X-2.7854 Y22.1151 I-1.8 J-0.607
G3 X-2.8291 Y22.184 I-0.5692 J-0.3129
G1 X-3.0133 Y22.4375
G3 X-3.0653 Y22.5004 I-0.5255 J-0.3818
G3 X-6.3047 Y20.7897 I-1.3847 J-1.3004
G1 F100.0 X-6.1094 Y20.8329
G3 F200.0 X-2.9606 Y22.0188 I1.6595 J0.3671
G3 X-2.9909 Y22.0665 I-0.394 J-0.2166
G1 X-3.1751 Y22.32
G3 X-3.211 Y22.3635 I-0.3637 J-0.2643
G3 X-6.1094 Y20.8329 I-1.2389 J-1.1634
G1 F100.0 X-5.9146 Y20.876
G3 F200.0 X-3.1355 Y21.9226 I1.4646 J0.324
G3 X-3.1524 Y21.9491 I-0.2191 J-0.1204
G1 X-3.3365 Y22.2026
G3 X-3.3565 Y22.2268 I-0.2023 J-0.1469
G3 X-5.9146 Y20.876 I-1.0934 J-1.0268
G0 Z3.0
G0 X-6.9
G1 F100.0 Z-3.0
G1 F200.0 Y23.45
G1 X-2.45
G1 Y19.45
G1 X-6.9
G1 Y20.876
G1 F100.0 X-7.1
G1 F200.0 Y23.65
G1 X-2.25
G1 Y19.25
G1 X-7.1
G1 Y20.876
G0 Z3.0
G0 X-6.5 Y20.7465
G1 F100.0 Z-3.3
G3 F200.0 X-6.058 Y19.85 I2.05 J0.4535
G1 X-6.5
G1 Y20.7465
G0 Z3.0
G0 X-6.3 Y22.5658
G1 F100.0 Z-3.3
G1 F200.0 Y22.85
G1 X-6.0517
G3 X-6.3 Y22.5658 I1.6017 J-1.65
G1 F100.0 X-6.5
G1 F200.0 Y23.05
G1 X-5.4428
G3 X-6.5 Y21.6535 I0.9929 J-1.85
G1 Y22.5658
G0 Z3.0
G0 X-3.4571 Y23.05
G1 F100.0 Z-3.3
G1 F200.0 X-2.85
G1 Y22.5531
G1 X-2.8514 Y22.5551
G3 X-2.9195 Y22.6373 I-0.6873 J-0.4994
G3 X-3.4571 Y23.05 I-1.5305 J-1.4373
G1 F100.0 X-3.5517 Y22.8738
G3 F200.0 X-5.5481 Y19.65 I-0.8983 J-1.6738
G1 X-6.7
G1 Y23.25
G1 X-2.65
G1 Y21.807
G3 X-2.7854 Y22.1151 I-1.8 J-0.607
G3 X-2.8291 Y22.184 I-0.5692 J-0.3129
G1 X-3.0133 Y22.4375
G3 X-3.0653 Y22.5004 I-0.5255 J-0.3818
G3 X-3.5517 Y22.8738 I-1.3847 J-1.3004
G0 Z3.0
G0 X-2.65 Y20.593
G1 F100.0 Z-3.3
G1 F200.0 Y19.65
G1 X-3.3519
G3 X-2.65 Y20.593 I-1.0981 J1.55
G1 F100.0 X-2.8395 Y20.6569
G3 F200.0 X-2.9606 Y22.0188 I-1.6105 J0.5431
G3 X-2.9909 Y22.0665 I-0.394 J-0.2166
G1 X-3.1751 Y22.32
G3 X-3.211 Y22.3635 I-0.3637 J-0.2643
G3 X-2.8395 Y20.6569 I-1.2389 J-1.1634
G1 F100.0 X-3.0286 Y20.7207
G3 F200.0 X-3.1355 Y21.9226 I-1.4213 J0.4793
G3 X-3.1524 Y21.9491 I-0.2191 J-0.1204
G1 X-3.3365 Y22.2026
G3 X-3.3565 Y22.2268 I-0.2023 J-0.1469
G3 X-3.0286 Y20.7207 I-1.0934 J-1.0268
G0 Z3.0
G0 X-2.45
G1 F100.0 Z-3.3
G1 F200.0 Y19.45
G1 X-6.9
G1 Y23.45
G1 X-2.45
G1 Y20.7207
G1 F100.0 X-2.25
G1 F200.0 Y19.25
G1 X-7.1
G1 Y23.65
G1 X-2.25
G1 Y20.7207
G0 Z3.0
G0 X-2.65 Y20.593
G1 F100.0 Z-3.6
G1 F200.0 Y19.65
G1 X-3.3519
G3 X-2.65 Y20.593 I-1.0981 J1.55
G0 Z3.0
G0 X-2.85 Y22.5531
G1 F100.0 Z-3.6
G1 F200.0 X-2.8514 Y22.5551
G3 X-2.9195 Y22.6373 I-0.6873 J-0.4994
G3 X-3.4571 Y23.05 I-1.5305 J-1.4373
G1 X-2.85
G1 Y22.5531
G0 Z3.0
G0 X-6.0517 Y22.85
G1 F100.0 Z-3.6
G3 F200.0 X-6.3 Y22.5658 I1.6017 J-1.65
G1 Y22.85
G1 X-6.0517
G1 F100.0 Y23.05
G1 F200.0 X-5.4428
G3 X-6.5 Y21.6535 I0.9929 J-1.85
G1 Y23.05
G1 X-6.0517
G0 Z3.0
G0 X-6.5 Y20.7465
G1 F100.0 Z-3.6
G3 F200.0 X-6.058 Y19.85 I2.05 J0.4535
G1 X-6.5
G1 Y20.7465
G1 F100.0 X-6.3047 Y20.7897
G3 F200.0 X-5.5481 Y19.65 I1.8547 J0.4103
G1 X-6.7
G1 Y23.25
G1 X-2.65
G1 Y21.807
G3 X-2.7854 Y22.1151 I-1.8 J-0.607
G3 X-2.8291 Y22.184 I-0.5692 J-0.3129
G1 X-3.0133 Y22.4375
G3 X-3.0653 Y22.5004 I-0.5255 J-0.3818
G3 X-6.3047 Y20.7897 I-1.3847 J-1.3004
G1 F100.0 X-6.1094 Y20.8329
G3 F200.0 X-2.9606 Y22.0188 I1.6595 J0.3671
G3 X-2.9909 Y22.0665 I-0.394 J-0.2166
G1 X-3.1751 Y22.32
G3 X-3.211 Y22.3635 I-0.3637 J-0.2643
G3 X-6.1094 Y20.8329 I-1.2389 J-1.1634
G1 F100.0 X-5.9146 Y20.876
G3 F200.0 X-3.1355 Y21.9226 I1.4646 J0.324
G3 X-3.1524 Y21.9491 I-0.2191 J-0.1204
G1 X-3.3365 Y22.2026
G3 X-3.3565 Y22.2268 I-0.2023 J-0.1469
G3 X-5.9146 Y20.876 I-1.0934 J-1.0268
G0 Z3.0
G0 X-6.9
G1 F100.0 Z-3.6
G1 F200.0 Y23.45
G1 X-2.45
G1 Y19.45
G1 X-6.9
G1 Y20.876
G1 F100.0 X-7.1
G1 F200.0 Y23.65
G1 X-2.25
G1 Y19.25
G1 X-7.1
G1 Y20.876
G0 Z3.0
G0 X-6.5 Y20.7465
G1 F100.0 Z-3.9
G3 F200.0 X-6.058 Y19.85 I2.05 J0.4535
G1 X-6.5
G1 Y20.7465
G0 Z3.0
G0 X-6.3 Y22.5658
G1 F100.0 Z-3.9
G1 F200.0 Y22.85
G1 X-6.0517
G3 X-6.3 Y22.5658 I1.6017 J-1.65
G1 F100.0 X-6.5
G1 F200.0 Y23.05
G1 X-5.4428
G3 X-6.5 Y21.6535 I0.9929 J-1.85
G1 Y22.5658
G0 Z3.0
G0 X-3.4571 Y23.05
G1 F100.0 Z-3.9
G1 F200.0 X-2.85
G1 Y22.5531
G1 X-2.8514 Y22.5551
G3 X-2.9195 Y22.6373 I-0.6873 J-0.4994
G3 X-3.4571 Y23.05 I-1.5305 J-1.4373
G1 F100.0 X-3.5517 Y22.8738
G3 F200.0 X-5.5481 Y19.65 I-0.8983 J-1.6738
G1 X-6.7
G1 Y23.25
G1 X-2.65
G1 Y21.807
G3 X-2.7854 Y22.1151 I-1.8 J-0.607
G3 X-2.8291 Y22.184 I-0.5692 J-0.3129
G1 X-3.0133 Y22.4375
G3 X-3.0653 Y22.5004 I-0.5255 J-0.3818
G3 X-3.5517 Y22.8738 I-1.3847 J-1.3004
G0 Z3.0
G0 X-2.65 Y20.593
G1 F100.0 Z-3.9
G1 F200.0 Y19.65
G1 X-3.3519
G3 X-2.65 Y20.593 I-1.0981 J1.55
G1 F100.0 X-2.8395 Y20.6569
G3 F200.0 X-2.9606 Y22.0188 I-1.6105 J0.5431
G3 X-2.9909 Y22.0665 I-0.394 J-0.2166
G1 X-3.1751 Y22.32
G3 X-3.211 Y22.3635 I-0.3637 J-0.2643
G3 X-2.8395 Y20.6569 I-1.2389 J-1.1634
G1 F100.0 X-3.0286 Y20.7207
G3 F200.0 X-3.1355 Y21.9226 I-1.4213 J0.4793
G3 X-3.1524 Y21.9491 I-0.2191 J-0.1204
G1 X-3.3365 Y22.2026
G3 X-3.3565 Y22.2268 I-0.2023 J-0.1469
G3 X-3.0286 Y20.7207 I-1.0934 J-1.0268
G0 Z3.0
G0 X-2.45
G1 F100.0 Z-3.9
G1 F200.0 Y19.45
G1 X-6.9
G1 Y23.45
G1 X-2.45
G1 Y20.7207
G1 F100.0 X-2.25
G1 F200.0 Y19.25
G1 X-7.1
G1 Y23.65
G1 X-2.25
G1 Y20.7207
G0 Z3.0
G0 X-2.65 Y20.593
G1 F100.0 Z-4.2
G1 F200.0 Y19.65
G1 X-3.3519
G3 X-2.65 Y20.593 I-1.0981 J1.55
G0 Z3.0
G0 X-2.85 Y22.5531
G1 F100.0 Z-4.2
G1 F200.0 X-2.8514 Y22.5551
G3 X-2.9195 Y22.6373 I-0.6873 J-0.4994
G3 X-3.4571 Y23.05 I-1.5305 J-1.4373
G1 X-2.85
G1 Y22.5531
G0 Z3.0
G0 X-6.0517 Y22.85
G1 F100.0 Z-4.2
G3 F200.0 X-6.3 Y22.5658 I1.6017 J-1.65
G1 Y22.85
G1 X-6.0517
G1 F100.0 Y23.05
G1 F200.0 X-5.4428
G3 X-6.5 Y21.6535 I0.9929 J-1.85
G1 Y23.05
G1 X-6.0517
G0 Z3.0
G0 X-6.5 Y20.7465
G1 F100.0 Z-4.2
G3 F200.0 X-6.058 Y19.85 I2.05 J0.4535
G1 X-6.5
G1 Y20.7465
G1 F100.0 X-6.3047 Y20.7897
G3 F200.0 X-5.5481 Y19.65 I1.8547 J0.4103
G1 X-6.7
G1 Y23.25
G1 X-2.65
G1 Y21.807
G3 X-2.7854 Y22.1151 I-1.8 J-0.607
G3 X-2.8291 Y22.184 I-0.5692 J-0.3129
G1 X-3.0133 Y22.4375
G3 X-3.0653 Y22.5004 I-0.5255 J-0.3818
G3 X-6.3047 Y20.7897 I-1.3847 J-1.3004
G1 F100.0 X-6.1094 Y20.8329
G3 F200.0 X-2.9606 Y22.0188 I1.6595 J0.3671
G3 X-2.9909 Y22.0665 I-0.394 J-0.2166
G1 X-3.1751 Y22.32
G3 X-3.211 Y22.3635 I-0.3637 J-0.2643
G3 X-6.1094 Y20.8329 I-1.2389 J-1.1634
G1 F100.0 X-5.9146 Y20.876
G3 F200.0 X-3.1355 Y21.9226 I1.4646 J0.324
G3 X-3.1524 Y21.9491 I-0.2191 J-0.1204
G1 X-3.3365 Y22.2026
G3 X-3.3565 Y22.2268 I-0.2023 J-0.1469
G3 X-5.9146 Y20.876 I-1.0934 J-1.0268
G0 Z3.0
G0 X-6.9
G1 F100.0 Z-4.2
G1 F200.0 Y23.45
G1 X-2.45
G1 Y19.45
G1 X-6.9
G1 Y20.876
G1 F100.0 X-7.1
G1 F200.0 Y23.65
G1 X-2.25
G1 Y19.25
G1 X-7.1
G1 Y20.876
G0 Z3.0
G0 X-6.5 Y20.7465
G1 F100.0 Z-4.5
G3 F200.0 X-6.058 Y19.85 I2.05 J0.4535
G1 X-6.5
G1 Y20.7465
G0 Z3.0
G0 X-6.3 Y22.5658
G1 F100.0 Z-4.5
G1 F200.0 Y22.85
G1 X-6.0517
G3 X-6.3 Y22.5658 I1.6017 J-1.65
G1 F100.0 X-6.5
G1 F200.0 Y23.05
G1 X-5.4428
G3 X-6.5 Y21.6535 I0.9929 J-1.85
G1 Y22.5658
G0 Z3.0
G0 X-3.4571 Y23.05
G1 F100.0 Z-4.5
G1 F200.0 X-2.85
G1 Y22.5531
G1 X-2.8514 Y22.5551
G3 X-2.9195 Y22.6373 I-0.6873 J-0.4994
G3 X-3.4571 Y23.05 I-1.5305 J-1.4373
G1 F100.0 X-3.5517 Y22.8738
G3 F200.0 X-5.5481 Y19.65 I-0.8983 J-1.6738
G1 X-6.7
G1 Y23.25
G1 X-2.65
G1 Y21.807
G3 X-2.7854 Y22.1151 I-1.8 J-0.607
G3 X-2.8291 Y22.184 I-0.5692 J-0.3129
G1 X-3.0133 Y22.4375
G3 X-3.0653 Y22.5004 I-0.5255 J-0.3818
G3 X-3.5517 Y22.8738 I-1.3847 J-1.3004
G0 Z3.0
G0 X-2.65 Y20.593
G1 F100.0 Z-4.5
G1 F200.0 Y19.65
G1 X-3.3519
G3 X-2.65 Y20.593 I-1.0981 J1.55
G1 F100.0 X-2.8395 Y20.6569
G3 F200.0 X-2.9606 Y22.0188 I-1.6105 J0.5431
G3 X-2.9909 Y22.0665 I-0.394 J-0.2166
G1 X-3.1751 Y22.32
G3 X-3.211 Y22.3635 I-0.3637 J-0.2643
G3 X-2.8395 Y20.6569 I-1.2389 J-1.1634
G1 F100.0 X-3.0286 Y20.7207
G3 F200.0 X-3.1355 Y21.9226 I-1.4213 J0.4793
G3 X-3.1524 Y21.9491 I-0.2191 J-0.1204
G1 X-3.3365 Y22.2026
G3 X-3.3565 Y22.2268 I-0.2023 J-0.1469
G3 X-3.0286 Y20.7207 I-1.0934 J-1.0268
G0 Z3.0
G0 X-2.45
G1 F100.0 Z-4.5
G1 F200.0 Y19.45
G1 X-6.9
G1 Y23.45
G1 X-2.45
G1 Y20.7207
G1 F100.0 X-2.25
G1 F200.0 Y19.25
G1 X-7.1
G1 Y23.65
G1 X-2.25
G1 Y20.7207
( Tige1 )
S2500
G0 Z3.0
G0 X17.4 Y11.85
G1 F100.0 Z-0.3
G1 F200.0 Y8.85
G1 X17.3
G1 Y11.85
G1 X17.4
G1 F100.0 Z-0.6
G1 F200.0 Y8.85
G1 X17.3
G1 Y11.85
G1 X17.4
G1 F100.0 Z-0.9
G1 F200.0 Y8.85
G1 X17.3
G1 Y11.85
G1 X17.4
G1 F100.0 Z-1.2
G1 F200.0 Y8.85
G1 X17.3
G1 Y11.85
G1 X17.4
G1 F100.0 Z-1.5
G1 F200.0 Y8.85
G1 X17.3
G1 Y11.85
G1 X17.4
G1 F100.0 Z-1.8
G1 F200.0 Y8.85
G1 X17.3
G1 Y11.85
G1 X17.4
G1 F100.0 Z-2.1
G1 F200.0 Y8.85
G1 X17.3
G1 Y11.85
G1 X17.4
G1 F100.0 Z-2.3
G1 F200.0 Y8.85
G1 X17.3
G1 Y11.85
G1 X17.4
G0 Z3.0
G0 Y0.75
G1 F100.0 Z-0.3
G1 F200.0 Y-4.55
G1 X17.3
G1 Y0.75
G1 X17.4
G1 F100.0 Z-0.6
G1 F200.0 Y-4.55
G1 X17.3
G1 Y0.75
G1 X17.4
G1 F100.0 Z-0.9
G1 F200.0 Y-4.55
G1 X17.3
G1 Y0.75
G1 X17.4
G1 F100.0 Z-1.2
G1 F200.0 Y-4.55
G1 X17.3
G1 Y0.75
G1 X17.4
G1 F100.0 Z-1.5
G1 F200.0 Y-4.55
G1 X17.3
G1 Y0.75
G1 X17.4
G1 F100.0 Z-1.8
G1 F200.0 Y-4.55
G1 X17.3
G1 Y0.75
G1 X17.4
G1 F100.0 Z-2.1
G1 F200.0 Y-4.55
G1 X17.3
G1 Y0.75
G1 X17.4
G1 F100.0 Z-2.3
G1 F200.0 Y-4.55
G1 X17.3
G1 Y0.75
G1 X17.4
G0 Z3.0
G0 X14.1 Y-6.9
G1 F100.0 Z-0.3
G1 F200.0 Y-7.2
G1 X12.45
G1 Y-6.9
G1 X14.1
G1 F100.0 Z-0.6
G1 F200.0 Y-7.2
G1 X12.45
G1 Y-6.9
G1 X14.1
G1 F100.0 Z-0.9
G1 F200.0 Y-7.2
G1 X12.45
G1 Y-6.9
G1 X14.1
G1 F100.0 Z-1.2
G1 F200.0 Y-7.2
G1 X12.45
G1 Y-6.9
G1 X14.1
G1 F100.0 Z-1.5
G1 F200.0 Y-7.2
G1 X12.45
G1 Y-6.9
G1 X14.1
G1 F100.0 Z-1.8
G1 F200.0 Y-7.2
G1 X12.45
G1 Y-6.9
G1 X14.1
G1 F100.0 Z-2.1
G1 F200.0 Y-7.2
G1 X12.45
G1 Y-6.9
G1 X14.1
G1 F100.0 Z-2.3
G1 F200.0 Y-7.2
G1 X12.45
G1 Y-6.9
G1 X14.1
( Tige2 )
S2500
G0 Z3.0
G0 X21.45 Y-3.4
G1 F100.0 Z-0.3
G1 F200.0 Y-6.15
G1 X20.6
G1 Y-6.05
G1 X21.1
G3 X21.35 Y-5.8 I0.0 J0.25
G1 Y-3.4
G1 X21.45
G1 F100.0 Z-0.6
G1 F200.0 Y-6.15
G1 X20.6
G1 Y-6.05
G1 X21.1
G3 X21.35 Y-5.8 I0.0 J0.25
G1 Y-3.4
G1 X21.45
G1 F100.0 Z-0.9
G1 F200.0 Y-6.15
G1 X20.6
G1 Y-6.05
G1 X21.1
G3 X21.35 Y-5.8 I0.0 J0.25
G1 Y-3.4
G1 X21.45
G1 F100.0 Z-1.0
G1 F200.0 Y-6.15
G1 X20.6
G1 Y-6.05
G1 X21.1
G3 X21.35 Y-5.8 I0.0 J0.25
G1 Y-3.4
G1 X21.45
( Barro )
S2500
G0 Z3.0
G0 X7.35 Y24.15
G1 F100.0 Z-0.3
G1 F200.0 X-7.35
G3 X-7.6 Y23.9 I0.0 J-0.25
G1 Y13.2
G3 X-7.35 Y12.95 I0.25 J0.0
G1 X7.35
G3 X7.6 Y13.2 I0.0 J0.25
G1 Y23.9
G3 X7.35 Y24.15 I-0.25 J0.0
G1 F100.0 Z-0.6
G1 F200.0 X-7.35
G3 X-7.6 Y23.9 I0.0 J-0.25
G1 Y13.2
G3 X-7.35 Y12.95 I0.25 J0.0
G1 X7.35
G3 X7.6 Y13.2 I0.0 J0.25
G1 Y23.9
G3 X7.35 Y24.15 I-0.25 J0.0
G1 F100.0 Z-0.9
G1 F200.0 X-7.35
G3 X-7.6 Y23.9 I0.0 J-0.25
G1 Y13.2
G3 X-7.35 Y12.95 I0.25 J0.0
G1 X7.35
G3 X7.6 Y13.2 I0.0 J0.25
G1 Y23.9
G3 X7.35 Y24.15 I-0.25 J0.0
G1 F100.0 Z-1.2
G1 F200.0 X-7.35
G3 X-7.6 Y23.9 I0.0 J-0.25
G1 Y13.2
G3 X-7.35 Y12.95 I0.25 J0.0
G1 X7.35
G3 X7.6 Y13.2 I0.0 J0.25
G1 Y23.9
G3 X7.35 Y24.15 I-0.25 J0.0
G1 F100.0 Z-1.5
G1 F200.0 X-7.35
G3 X-7.6 Y23.9 I0.0 J-0.25
G1 Y13.2
G3 X-7.35 Y12.95 I0.25 J0.0
G1 X7.35
G3 X7.6 Y13.2 I0.0 J0.25
G1 Y23.9
G3 X7.35 Y24.15 I-0.25 J0.0
G1 F100.0 Z-1.8
G1 F200.0 X-7.35
G3 X-7.6 Y23.9 I0.0 J-0.25
G1 Y13.2
G3 X-7.35 Y12.95 I0.25 J0.0
G1 X7.35
G3 X7.6 Y13.2 I0.0 J0.25
G1 Y23.9
G3 X7.35 Y24.15 I-0.25 J0.0
G1 F100.0 Z-2.1
G1 F200.0 X-7.35
G3 X-7.6 Y23.9 I0.0 J-0.25
G1 Y13.2
G3 X-7.35 Y12.95 I0.25 J0.0
G1 X7.35
G3 X7.6 Y13.2 I0.0 J0.25
G1 Y23.9
G3 X7.35 Y24.15 I-0.25 J0.0
G1 F100.0 Z-2.4
G1 F200.0 X-7.35
G3 X-7.6 Y23.9 I0.0 J-0.25
G1 Y13.2
G3 X-7.35 Y12.95 I0.25 J0.0
G1 X7.35
G3 X7.6 Y13.2 I0.0 J0.25
G1 Y23.9
G3 X7.35 Y24.15 I-0.25 J0.0
G1 F100.0 Z-2.7
G1 F200.0 X-7.35
G3 X-7.6 Y23.9 I0.0 J-0.25
G1 Y13.2
G3 X-7.35 Y12.95 I0.25 J0.0
G1 X7.35
G3 X7.6 Y13.2 I0.0 J0.25
G1 Y23.9
G3 X7.35 Y24.15 I-0.25 J0.0
G1 F100.0 Z-3.0
G1 F200.0 X-7.35
G3 X-7.6 Y23.9 I0.0 J-0.25
G1 Y13.2
G3 X-7.35 Y12.95 I0.25 J0.0
G1 X7.35
G3 X7.6 Y13.2 I0.0 J0.25
G1 Y23.9
G3 X7.35 Y24.15 I-0.25 J0.0
G1 F100.0 Z-3.3
G1 F200.0 X-7.35
G3 X-7.6 Y23.9 I0.0 J-0.25
G1 Y13.2
G3 X-7.35 Y12.95 I0.25 J0.0
G1 X7.35
G3 X7.6 Y13.2 I0.0 J0.25
G1 Y23.9
G3 X7.35 Y24.15 I-0.25 J0.0
G1 F100.0 Z-3.6
G1 F200.0 X-7.35
G3 X-7.6 Y23.9 I0.0 J-0.25
G1 Y13.2
G3 X-7.35 Y12.95 I0.25 J0.0
G1 X7.35
G3 X7.6 Y13.2 I0.0 J0.25
G1 Y23.9
G3 X7.35 Y24.15 I-0.25 J0.0
G1 F100.0 Z-3.9
G1 F200.0 X-7.35
G3 X-7.6 Y23.9 I0.0 J-0.25
G1 Y13.2
G3 X-7.35 Y12.95 I0.25 J0.0
G1 X7.35
G3 X7.6 Y13.2 I0.0 J0.25
G1 Y23.9
G3 X7.35 Y24.15 I-0.25 J0.0
G1 F100.0 Z-4.2
G1 F200.0 X-7.35
G3 X-7.6 Y23.9 I0.0 J-0.25
G1 Y13.2
G3 X-7.35 Y12.95 I0.25 J0.0
G1 X7.35
G3 X7.6 Y13.2 I0.0 J0.25
G1 Y23.9
G3 X7.35 Y24.15 I-0.25 J0.0
G1 F100.0 Z-4.5
G1 F200.0 X-7.35
G3 X-7.6 Y23.9 I0.0 J-0.25
G1 Y13.2
G3 X-7.35 Y12.95 I0.25 J0.0
G1 X7.35
G3 X7.6 Y13.2 I0.0 J0.25
G1 Y23.9
G3 X7.35 Y24.15 I-0.25 J0.0
( Boutton )
S2500
G0 Z3.0
G0 X24.75 Y-1.75
G1 Z-0.3
G1 X24.7
G3 X24.45 Y-2.0 I0.0 J-0.25
G1 Y-2.9
G1 X21.35
G1 Y2.9
G1 X24.45
G1 Y2.0
G3 X24.7 Y1.75 I0.25 J0.0
G1 X24.75
G1 Y-1.75
G1 Z-0.6
G1 X24.7
G3 X24.45 Y-2.0 I0.0 J-0.25
G1 Y-2.9
G1 X21.35
G1 Y2.9
G1 X24.45
G1 Y2.0
G3 X24.7 Y1.75 I0.25 J0.0
G1 X24.75
G1 Y-1.75
( Bip )
S2500
G0 Z3.0
G0 X-5.6896 Y-21.8309
G1 F100.0 Z-0.5
G2 F200.0 X3.8626 Y-16.7406 I5.6896 J0.8309
G3 X4.0952 Y-16.7969 I0.1679 J0.1852
G1 X6.2265 Y-16.2258
G1 X7.7794 Y-22.0213
G1 X5.6482 Y-22.5924
G3 X5.4748 Y-22.7575 I0.0647 J-0.2415
G2 X-5.6896 Y-21.8309 I-5.4748 J1.7575
G1 F100.0 Z-1.0
G2 F200.0 X3.8626 Y-16.7406 I5.6896 J0.8309
G3 X4.0952 Y-16.7969 I0.1679 J0.1852
G1 X6.2265 Y-16.2258
G1 X7.7794 Y-22.0213
G1 X5.6482 Y-22.5924
G3 X5.4748 Y-22.7575 I0.0647 J-0.2415
G2 X-5.6896 Y-21.8309 I-5.4748 J1.7575
G1 F100.0 Z-1.5
G2 F200.0 X3.8626 Y-16.7406 I5.6896 J0.8309
G3 X4.0952 Y-16.7969 I0.1679 J0.1852
G1 X6.2265 Y-16.2258
G1 X7.7794 Y-22.0213
G1 X5.6482 Y-22.5924
G3 X5.4748 Y-22.7575 I0.0647 J-0.2415
G2 X-5.6896 Y-21.8309 I-5.4748 J1.7575
G1 F100.0 Z-2.0
G2 F200.0 X3.8626 Y-16.7406 I5.6896 J0.8309
G3 X4.0952 Y-16.7969 I0.1679 J0.1852
G1 X6.2265 Y-16.2258
G1 X7.7794 Y-22.0213
G1 X5.6482 Y-22.5924
G3 X5.4748 Y-22.7575 I0.0647 J-0.2415
G2 X-5.6896 Y-21.8309 I-5.4748 J1.7575
G1 F100.0 Z-2.5
G2 F200.0 X3.8626 Y-16.7406 I5.6896 J0.8309
G3 X4.0952 Y-16.7969 I0.1679 J0.1852
G1 X6.2265 Y-16.2258
G1 X7.7794 Y-22.0213
G1 X5.6482 Y-22.5924
G3 X5.4748 Y-22.7575 I0.0647 J-0.2415
G2 X-5.6896 Y-21.8309 I-5.4748 J1.7575
G1 F100.0 Z-3.0
G2 F200.0 X3.8626 Y-16.7406 I5.6896 J0.8309
G3 X4.0952 Y-16.7969 I0.1679 J0.1852
G1 X6.2265 Y-16.2258
G1 X7.7794 Y-22.0213
G1 X5.6482 Y-22.5924
G3 X5.4748 Y-22.7575 I0.0647 J-0.2415
G2 X-5.6896 Y-21.8309 I-5.4748 J1.7575
G1 F100.0 Z-3.5
G2 F200.0 X3.8626 Y-16.7406 I5.6896 J0.8309
G3 X4.0952 Y-16.7969 I0.1679 J0.1852
G1 X6.2265 Y-16.2258
G1 X7.7794 Y-22.0213
G1 X5.6482 Y-22.5924
G3 X5.4748 Y-22.7575 I0.0647 J-0.2415
G2 X-5.6896 Y-21.8309 I-5.4748 J1.7575
G1 F100.0 Z-4.0
G2 F200.0 X3.8626 Y-16.7406 I5.6896 J0.8309
G3 X4.0952 Y-16.7969 I0.1679 J0.1852
G1 X6.2265 Y-16.2258
G1 X7.7794 Y-22.0213
G1 X5.6482 Y-22.5924
G3 X5.4748 Y-22.7575 I0.0647 J-0.2415
G2 X-5.6896 Y-21.8309 I-5.4748 J1.7575
G1 F100.0 Z-4.5
G2 F200.0 X3.8626 Y-16.7406 I5.6896 J0.8309
G3 X4.0952 Y-16.7969 I0.1679 J0.1852
G1 X6.2265 Y-16.2258
G1 X7.7794 Y-22.0213
G1 X5.6482 Y-22.5924
G3 X5.4748 Y-22.7575 I0.0647 J-0.2415
G2 X-5.6896 Y-21.8309 I-5.4748 J1.7575
G0 Z3.0
M5
M30
