( Made using CamBam - http://www.cambam.co.uk )
( Font 2/3/2018 6:17:47 PM )
( T0 : 3.2 )
G21 G90 G64 G40
G0 Z3.0
( T0 : 3.2 )
T0 M6
( Contour )
G17
M3 S350
G0 X26.6 Y-14.4338
G1 F100.0 Z-0.5
G1 F120.0 Y14.4338
G3 X25.8 Y15.8194 I-1.6 J0.0
G1 X16.3366 Y21.2831
G1 X14.9077 Y22.1081 Z5.6
G1 X13.4788 Y22.9331 Z-0.5
G1 X0.8 Y30.2532
G3 X-0.8 I-0.8 J-1.3856
G1 X-25.8 Y15.8194
G3 X-26.6 Y14.4338 I0.8 J-1.3856
G1 Y1.65
G1 Y0.0 Z5.6
G1 Y-1.65 Z-0.5
G1 Y-14.4338
G3 X-25.8 Y-15.8194 I1.6 J0.0
G1 X-0.8 Y-30.2532
G3 X0.8 I0.8 J1.3856
G1 X12.6127 Y-23.4331
G1 X14.0417 Y-22.6081 Z5.6
G1 X15.4706 Y-21.7831 Z-0.5
G1 X25.8 Y-15.8194
G3 X26.6 Y-14.4338 I-0.8 J1.3856
G1 F100.0 Z-1.0
G1 F120.0 Y14.4338
G3 X25.8 Y15.8194 I-1.6 J0.0
G1 X16.3366 Y21.2831
G1 X14.9077 Y22.1081 Z5.6
G1 X13.4788 Y22.9331 Z-1.0
G1 X0.8 Y30.2532
G3 X-0.8 I-0.8 J-1.3856
G1 X-25.8 Y15.8194
G3 X-26.6 Y14.4338 I0.8 J-1.3856
G1 Y1.65
G1 Y0.0 Z5.6
G1 Y-1.65 Z-1.0
G1 Y-14.4338
G3 X-25.8 Y-15.8194 I1.6 J0.0
G1 X-0.8 Y-30.2532
G3 X0.8 I0.8 J1.3856
G1 X12.6127 Y-23.4331
G1 X14.0417 Y-22.6081 Z5.6
G1 X15.4706 Y-21.7831 Z-1.0
G1 X25.8 Y-15.8194
G3 X26.6 Y-14.4338 I-0.8 J1.3856
G1 F100.0 Z-1.5
G1 F120.0 Y14.4338
G3 X25.8 Y15.8194 I-1.6 J0.0
G1 X16.3366 Y21.2831
G1 X14.9077 Y22.1081 Z5.6
G1 X13.4788 Y22.9331 Z-1.5
G1 X0.8 Y30.2532
G3 X-0.8 I-0.8 J-1.3856
G1 X-25.8 Y15.8194
G3 X-26.6 Y14.4338 I0.8 J-1.3856
G1 Y1.65
G1 Y0.0 Z5.6
G1 Y-1.65 Z-1.5
G1 Y-14.4338
G3 X-25.8 Y-15.8194 I1.6 J0.0
G1 X-0.8 Y-30.2532
G3 X0.8 I0.8 J1.3856
G1 X12.6127 Y-23.4331
G1 X14.0417 Y-22.6081 Z5.6
G1 X15.4706 Y-21.7831 Z-1.5
G1 X25.8 Y-15.8194
G3 X26.6 Y-14.4338 I-0.8 J1.3856
G1 F100.0 Z-2.0
G1 F120.0 Y14.4338
G3 X25.8 Y15.8194 I-1.6 J0.0
G1 X16.3366 Y21.2831
G1 X14.9077 Y22.1081 Z5.6
G1 X13.4788 Y22.9331 Z-2.0
G1 X0.8 Y30.2532
G3 X-0.8 I-0.8 J-1.3856
G1 X-25.8 Y15.8194
G3 X-26.6 Y14.4338 I0.8 J-1.3856
G1 Y1.65
G1 Y0.0 Z5.6
G1 Y-1.65 Z-2.0
G1 Y-14.4338
G3 X-25.8 Y-15.8194 I1.6 J0.0
G1 X-0.8 Y-30.2532
G3 X0.8 I0.8 J1.3856
G1 X12.6127 Y-23.4331
G1 X14.0417 Y-22.6081 Z5.6
G1 X15.4706 Y-21.7831 Z-2.0
G1 X25.8 Y-15.8194
G3 X26.6 Y-14.4338 I-0.8 J1.3856
G1 F100.0 Z-2.5
G1 F120.0 Y14.4338
G3 X25.8 Y15.8194 I-1.6 J0.0
G1 X16.3366 Y21.2831
G1 X14.9077 Y22.1081 Z5.6
G1 X13.4788 Y22.9331 Z-2.5
G1 X0.8 Y30.2532
G3 X-0.8 I-0.8 J-1.3856
G1 X-25.8 Y15.8194
G3 X-26.6 Y14.4338 I0.8 J-1.3856
G1 Y1.65
G1 Y0.0 Z5.6
G1 Y-1.65 Z-2.5
G1 Y-14.4338
G3 X-25.8 Y-15.8194 I1.6 J0.0
G1 X-0.8 Y-30.2532
G3 X0.8 I0.8 J1.3856
G1 X12.6127 Y-23.4331
G1 X14.0417 Y-22.6081 Z5.6
G1 X15.4706 Y-21.7831 Z-2.5
G1 X25.8 Y-15.8194
G3 X26.6 Y-14.4338 I-0.8 J1.3856
G1 F100.0 Z-3.0
G1 F120.0 Y14.4338
G3 X25.8 Y15.8194 I-1.6 J0.0
G1 X16.3366 Y21.2831
G1 X14.9077 Y22.1081 Z5.6
G1 X13.4788 Y22.9331 Z-3.0
G1 X0.8 Y30.2532
G3 X-0.8 I-0.8 J-1.3856
G1 X-25.8 Y15.8194
G3 X-26.6 Y14.4338 I0.8 J-1.3856
G1 Y1.65
G1 Y0.0 Z5.6
G1 Y-1.65 Z-3.0
G1 Y-14.4338
G3 X-25.8 Y-15.8194 I1.6 J0.0
G1 X-0.8 Y-30.2532
G3 X0.8 I0.8 J1.3856
G1 X12.6127 Y-23.4331
G1 X14.0417 Y-22.6081 Z5.6
G1 X15.4706 Y-21.7831 Z-3.0
G1 X25.8 Y-15.8194
G3 X26.6 Y-14.4338 I-0.8 J1.3856
G1 F100.0 Z-3.5
G1 F120.0 Y14.4338
G3 X25.8 Y15.8194 I-1.6 J0.0
G1 X16.3366 Y21.2831
G1 X14.9077 Y22.1081 Z5.6
G1 X13.4788 Y22.9331 Z-3.5
G1 X0.8 Y30.2532
G3 X-0.8 I-0.8 J-1.3856
G1 X-25.8 Y15.8194
G3 X-26.6 Y14.4338 I0.8 J-1.3856
G1 Y1.65
G1 Y0.0 Z5.6
G1 Y-1.65 Z-3.5
G1 Y-14.4338
G3 X-25.8 Y-15.8194 I1.6 J0.0
G1 X-0.8 Y-30.2532
G3 X0.8 I0.8 J1.3856
G1 X12.6127 Y-23.4331
G1 X14.0417 Y-22.6081 Z5.6
G1 X15.4706 Y-21.7831 Z-3.5
G1 X25.8 Y-15.8194
G3 X26.6 Y-14.4338 I-0.8 J1.3856
G1 F100.0 Z-4.0
G1 F120.0 Y14.4338
G3 X25.8 Y15.8194 I-1.6 J0.0
G1 X16.3366 Y21.2831
G1 X14.9077 Y22.1081 Z5.6
G1 X13.4788 Y22.9331 Z-4.0
G1 X0.8 Y30.2532
G3 X-0.8 I-0.8 J-1.3856
G1 X-25.8 Y15.8194
G3 X-26.6 Y14.4338 I0.8 J-1.3856
G1 Y1.65
G1 Y0.0 Z5.6
G1 Y-1.65 Z-4.0
G1 Y-14.4338
G3 X-25.8 Y-15.8194 I1.6 J0.0
G1 X-0.8 Y-30.2532
G3 X0.8 I0.8 J1.3856
G1 X12.6127 Y-23.4331
G1 X14.0417 Y-22.6081 Z5.6
G1 X15.4706 Y-21.7831 Z-4.0
G1 X25.8 Y-15.8194
G3 X26.6 Y-14.4338 I-0.8 J1.3856
G1 F100.0 Z-4.5
G1 F120.0 Y14.4338
G3 X25.8 Y15.8194 I-1.6 J0.0
G1 X16.3366 Y21.2831
G1 X14.9077 Y22.1081 Z5.6
G1 X13.4788 Y22.9331 Z-4.5
G1 X0.8 Y30.2532
G3 X-0.8 I-0.8 J-1.3856
G1 X-25.8 Y15.8194
G3 X-26.6 Y14.4338 I0.8 J-1.3856
G1 Y1.65
G1 Y0.0 Z5.6
G1 Y-1.65 Z-4.5
G1 Y-14.4338
G3 X-25.8 Y-15.8194 I1.6 J0.0
G1 X-0.8 Y-30.2532
G3 X0.8 I0.8 J1.3856
G1 X12.6127 Y-23.4331
G1 X14.0417 Y-22.6081 Z5.6
G1 X15.4706 Y-21.7831 Z-4.5
G1 X25.8 Y-15.8194
G3 X26.6 Y-14.4338 I-0.8 J1.3856
G1 F100.0 Z-5.0
G1 F120.0 Y14.4338
G3 X25.8 Y15.8194 I-1.6 J0.0
G1 X16.3366 Y21.2831
G1 X14.9077 Y22.1081 Z5.6
G1 X13.4788 Y22.9331 Z-5.0
G1 X0.8 Y30.2532
G3 X-0.8 I-0.8 J-1.3856
G1 X-25.8 Y15.8194
G3 X-26.6 Y14.4338 I0.8 J-1.3856
G1 Y1.65
G1 Y0.0 Z5.6
G1 Y-1.65 Z-5.0
G1 Y-14.4338
G3 X-25.8 Y-15.8194 I1.6 J0.0
G1 X-0.8 Y-30.2532
G3 X0.8 I0.8 J1.3856
G1 X12.6127 Y-23.4331
G1 X14.0417 Y-22.6081 Z5.6
G1 X15.4706 Y-21.7831 Z-5.0
G1 X25.8 Y-15.8194
G3 X26.6 Y-14.4338 I-0.8 J1.3856
G1 F100.0 Z-5.5
G1 F120.0 Y14.4338
G3 X25.8 Y15.8194 I-1.6 J0.0
G1 X16.3366 Y21.2831
G1 X14.9077 Y22.1081 Z5.6
G1 X13.4788 Y22.9331 Z-5.5
G1 X0.8 Y30.2532
G3 X-0.8 I-0.8 J-1.3856
G1 X-25.8 Y15.8194
G3 X-26.6 Y14.4338 I0.8 J-1.3856
G1 Y1.65
G1 Y0.0 Z5.6
G1 Y-1.65 Z-5.5
G1 Y-14.4338
G3 X-25.8 Y-15.8194 I1.6 J0.0
G1 X-0.8 Y-30.2532
G3 X0.8 I0.8 J1.3856
G1 X12.6127 Y-23.4331
G1 X14.0417 Y-22.6081 Z5.6
G1 X15.4706 Y-21.7831 Z-5.5
G1 X25.8 Y-15.8194
G3 X26.6 Y-14.4338 I-0.8 J1.3856
G0 Z3.0
M5
M30
