( Made using CamBam - http://www.cambam.co.uk )
( Font 2/9/2018 8:32:32 PM )
( T0 : 1.6 )
G21 G90 G64 G40
G0 Z3.0
( T0 : 1.6 )
T0 M6
( Transistor2 )
G17
M3 S280
G0 X18.27 Y-6.88
G1 F100.0 Z-1.0
G1 F80.0 Y-7.22
G1 X16.43
G1 Y-6.88
G1 X18.27
G1 F100.0 Y-6.24
G1 F80.0 X18.91
G1 Y-7.86
G1 X15.79
G1 Y-6.24
G1 X18.27
G1 F100.0 Y-5.6
G1 F80.0 X19.55
G1 Y-8.5
G1 X15.15
G1 Y-5.6
G1 X18.27
G0 Z3.0
G0 Y-6.88
G1 F100.0 Z-2.0
G1 F80.0 Y-7.22
G1 X16.43
G1 Y-6.88
G1 X18.27
G1 F100.0 Y-6.24
G1 F80.0 X18.91
G1 Y-7.86
G1 X15.79
G1 Y-6.24
G1 X18.27
G1 F100.0 Y-5.6
G1 F80.0 X19.55
G1 Y-8.5
G1 X15.15
G1 Y-5.6
G1 X18.27
G0 Z3.0
G0 Y-6.88
G1 F100.0 Z-2.3
G1 F80.0 Y-7.22
G1 X16.43
G1 Y-6.88
G1 X18.27
G1 F100.0 Y-6.24
G1 F80.0 X18.91
G1 Y-7.86
G1 X15.79
G1 Y-6.24
G1 X18.27
G1 F100.0 Y-5.6
G1 F80.0 X19.55
G1 Y-8.5
G1 X15.15
G1 Y-5.6
G1 X18.27
( Visses )
S280
G0 Z3.0
G0 X10.4538 Y18.5281
G1 F100.0 Z-1.0
G1 F80.0 Y18.711
G2 Y18.5281 I0.2962 J-0.0915
G1 F100.0 X9.8138
G1 F80.0 Y18.7809
G2 Y18.4582 I0.9362 J-0.1613
G1 Y18.5281
G1 F100.0 X10.4538
G1 Z-2.0
G1 F80.0 Y18.711
G2 Y18.5281 I0.2962 J-0.0915
G1 F100.0 X9.8138
G1 F80.0 Y18.7809
G2 Y18.4582 I0.9362 J-0.1613
G1 Y18.5281
G1 F100.0 X10.4538
G1 Z-3.0
G1 F80.0 Y18.711
G2 Y18.5281 I0.2962 J-0.0915
G1 F100.0 X9.8138
G1 F80.0 Y18.7809
G2 Y18.4582 I0.9362 J-0.1613
G1 Y18.5281
G1 F100.0 X10.4538
G1 Z-4.0
G1 F80.0 Y18.711
G2 Y18.5281 I0.2962 J-0.0915
G1 F100.0 X9.8138
G1 F80.0 Y18.7809
G2 Y18.4582 I0.9362 J-0.1613
G1 Y18.5281
G1 F100.0 X10.4538
G1 Z-5.0
G1 F80.0 Y18.711
G2 Y18.5281 I0.2962 J-0.0915
G1 F100.0 X9.8138
G1 F80.0 Y18.7809
G2 Y18.4582 I0.9362 J-0.1613
G1 Y18.5281
G1 F100.0 X10.4538
G1 Z-5.5
G1 F80.0 Y18.711
G2 Y18.5281 I0.2962 J-0.0915
G1 F100.0 X9.8138
G1 F80.0 Y18.7809
G2 Y18.4582 I0.9362 J-0.1613
G1 Y18.5281
G0 Z3.0
G0 X-10.5999 Y-18.3483
G1 F100.0 Z-1.0
G2 F80.0 X-11.0462 Y-18.711 I-0.1501 J-0.2712
G1 Y-18.5281
G2 X-10.5999 Y-18.3483 I0.2962 J-0.0915
G1 F100.0 X-10.2899 Y-17.7884
G2 F80.0 X-11.6862 Y-18.7809 I-0.4601 J-0.8311
G1 Y-18.4582
G2 X-10.2899 Y-17.7884 I0.9362 J-0.1613
G1 F100.0 X-10.5999 Y-18.3483
G1 Z-2.0
G2 F80.0 X-11.0462 Y-18.711 I-0.1501 J-0.2712
G1 Y-18.5281
G2 X-10.5999 Y-18.3483 I0.2962 J-0.0915
G1 F100.0 X-10.2899 Y-17.7884
G2 F80.0 X-11.6862 Y-18.7809 I-0.4601 J-0.8311
G1 Y-18.4582
G2 X-10.2899 Y-17.7884 I0.9362 J-0.1613
G1 F100.0 X-10.5999 Y-18.3483
G1 Z-3.0
G2 F80.0 X-11.0462 Y-18.711 I-0.1501 J-0.2712
G1 Y-18.5281
G2 X-10.5999 Y-18.3483 I0.2962 J-0.0915
G1 F100.0 X-10.2899 Y-17.7884
G2 F80.0 X-11.6862 Y-18.7809 I-0.4601 J-0.8311
G1 Y-18.4582
G2 X-10.2899 Y-17.7884 I0.9362 J-0.1613
G1 F100.0 X-10.5999 Y-18.3483
G1 Z-4.0
G2 F80.0 X-11.0462 Y-18.711 I-0.1501 J-0.2712
G1 Y-18.5281
G2 X-10.5999 Y-18.3483 I0.2962 J-0.0915
G1 F100.0 X-10.2899 Y-17.7884
G2 F80.0 X-11.6862 Y-18.7809 I-0.4601 J-0.8311
G1 Y-18.4582
G2 X-10.2899 Y-17.7884 I0.9362 J-0.1613
G1 F100.0 X-10.5999 Y-18.3483
G1 Z-5.0
G2 F80.0 X-11.0462 Y-18.711 I-0.1501 J-0.2712
G1 Y-18.5281
G2 X-10.5999 Y-18.3483 I0.2962 J-0.0915
G1 F100.0 X-10.2899 Y-17.7884
G2 F80.0 X-11.6862 Y-18.7809 I-0.4601 J-0.8311
G1 Y-18.4582
G2 X-10.2899 Y-17.7884 I0.9362 J-0.1613
G1 F100.0 X-10.5999 Y-18.3483
G1 Z-5.5
G2 F80.0 X-11.0462 Y-18.711 I-0.1501 J-0.2712
G1 Y-18.5281
G2 X-10.5999 Y-18.3483 I0.2962 J-0.0915
G1 F100.0 X-10.2899 Y-17.7884
G2 F80.0 X-11.6862 Y-18.7809 I-0.4601 J-0.8311
G1 Y-18.4582
G2 X-10.2899 Y-17.7884 I0.9362 J-0.1613
( Diode )
S280
G0 Z3.0
G0 X17.95 Y7.8
G1 F100.0 Z-1.0
G1 F80.0 Y1.8
G1 X16.75
G1 Y7.8
G1 X17.95
G1 F100.0 Z-2.0
G1 F80.0 Y1.8
G1 X16.75
G1 Y7.8
G1 X17.95
G1 F100.0 Z-2.8
G1 F80.0 Y1.8
G1 X16.75
G1 Y7.8
G1 X17.95
( Transistor1 )
S280
G0 Z3.0
G0 X17.62 Y-11.38
G1 F100.0 Z-1.0
G1 F80.0 Y-11.92
G1 X17.08
G1 Y-11.38
G1 X17.62
G1 F100.0 Y-10.74
G1 F80.0 X18.26
G1 Y-12.56
G1 X16.44
G1 Y-10.74
G1 X17.62
G1 F100.0 Y-10.1
G1 F80.0 X18.9
G1 Y-13.2
G1 X15.8
G1 Y-10.1
G1 X17.62
G0 Z3.0
G0 Y-11.38
G1 F100.0 Z-2.0
G1 F80.0 Y-11.92
G1 X17.08
G1 Y-11.38
G1 X17.62
G1 F100.0 Y-10.74
G1 F80.0 X18.26
G1 Y-12.56
G1 X16.44
G1 Y-10.74
G1 X17.62
G1 F100.0 Y-10.1
G1 F80.0 X18.9
G1 Y-13.2
G1 X15.8
G1 Y-10.1
G1 X17.62
G0 Z3.0
G0 Y-11.38
G1 F100.0 Z-3.0
G1 F80.0 Y-11.92
G1 X17.08
G1 Y-11.38
G1 X17.62
G1 F100.0 Y-10.74
G1 F80.0 X18.26
G1 Y-12.56
G1 X16.44
G1 Y-10.74
G1 X17.62
G1 F100.0 Y-10.1
G1 F80.0 X18.9
G1 Y-13.2
G1 X15.8
G1 Y-10.1
G1 X17.62
G0 Z3.0
G0 Y-11.38
G1 F100.0 Z-3.7
G1 F80.0 Y-11.92
G1 X17.08
G1 Y-11.38
G1 X17.62
G1 F100.0 Y-10.74
G1 F80.0 X18.26
G1 Y-12.56
G1 X16.44
G1 Y-10.74
G1 X17.62
G1 F100.0 Y-10.1
G1 F80.0 X18.9
G1 Y-13.2
G1 X15.8
G1 Y-10.1
G1 X17.62
( Barro )
S280
G0 Z3.0
G0 X1.5473 Y18.62
G1 F100.0 Z-1.0
G1 F80.0 X2.07
G1 Y18.48
G1 X1.4851
G3 X1.5473 Y18.62 I-5.9351 J2.72
G1 F100.0 X0.9594 Y18.8729
G3 F80.0 X1.11 Y19.26 I-5.4094 J2.3271
G1 X2.71
G1 Y17.84
G1 X0.386
G3 X0.9594 Y18.8729 I-4.836 J3.36
G1 F100.0 X0.3715 Y19.1258
G3 F80.0 X0.6352 Y19.9 I-4.8215 J2.0742
G1 X3.35
G1 Y17.2
G1 X-1.0516
G3 X0.3715 Y19.1258 I-3.3984 J4.0
G1 F100.0 X-0.2164 Y19.3787
G3 F80.0 X0.1112 Y20.54 I-4.2336 J1.8213
G1 X3.99
G1 Y16.56
G1 X-3.99
G1 Y16.6143
G3 X-0.2164 Y19.3787 I-0.46 J4.5857
G1 F100.0 X-0.8043 Y19.6317
G3 F80.0 X-0.4813 Y21.18 I-3.6457 J1.5683
G1 X4.63
G1 Y15.92
G1 X-4.63
G1 Y17.2354
G3 X-0.8043 Y19.6317 I0.18 J3.9646
G1 F100.0 X-1.3922 Y19.8846
G3 F80.0 X-1.1795 Y21.82 I-3.0578 J1.3154
G1 X5.27
G1 Y15.28
G1 X-5.27
G1 Y17.9739
G3 X-1.3922 Y19.8846 I0.82 J3.2261
G1 F100.0 X-1.9801 Y20.1375
G3 F80.0 X-2.0748 Y22.46 I-2.4699 J1.0625
G1 X5.91
G1 Y14.64
G1 X-5.91
G1 Y18.9423
G3 X-1.9801 Y20.1375 I1.46 J2.2578
G1 F100.0 X-2.5669 Y20.3899
G3 F80.0 X-2.6536 Y22.1876 I-1.8831 J0.8101
G3 X-2.7074 Y22.2724 I-0.701 J-0.3854
G1 X-2.8916 Y22.5259
G3 X-2.9556 Y22.6033 I-0.6472 J-0.4702
G3 X-3.6803 Y23.1 I-1.4944 J-1.4033
G1 X6.55
G1 Y14.0
G1 X-6.55
G1 Y23.1
G1 X-5.2197
G3 X-2.5669 Y20.3899 I0.7697 J-1.9
G0 Z3.0
G0 X1.5473 Y18.62
G1 F100.0 Z-2.0
G1 F80.0 X2.07
G1 Y18.48
G1 X1.4851
G3 X1.5473 Y18.62 I-5.9351 J2.72
G1 F100.0 X0.9594 Y18.8729
G3 F80.0 X1.11 Y19.26 I-5.4094 J2.3271
G1 X2.71
G1 Y17.84
G1 X0.386
G3 X0.9594 Y18.8729 I-4.836 J3.36
G1 F100.0 X0.3715 Y19.1258
G3 F80.0 X0.6352 Y19.9 I-4.8215 J2.0742
G1 X3.35
G1 Y17.2
G1 X-1.0516
G3 X0.3715 Y19.1258 I-3.3984 J4.0
G1 F100.0 X-0.2164 Y19.3787
G3 F80.0 X0.1112 Y20.54 I-4.2336 J1.8213
G1 X3.99
G1 Y16.56
G1 X-3.99
G1 Y16.6143
G3 X-0.2164 Y19.3787 I-0.46 J4.5857
G1 F100.0 X-0.8043 Y19.6317
G3 F80.0 X-0.4813 Y21.18 I-3.6457 J1.5683
G1 X4.63
G1 Y15.92
G1 X-4.63
G1 Y17.2354
G3 X-0.8043 Y19.6317 I0.18 J3.9646
G1 F100.0 X-1.3922 Y19.8846
G3 F80.0 X-1.1795 Y21.82 I-3.0578 J1.3154
G1 X5.27
G1 Y15.28
G1 X-5.27
G1 Y17.9739
G3 X-1.3922 Y19.8846 I0.82 J3.2261
G1 F100.0 X-1.9801 Y20.1375
G3 F80.0 X-2.0748 Y22.46 I-2.4699 J1.0625
G1 X5.91
G1 Y14.64
G1 X-5.91
G1 Y18.9423
G3 X-1.9801 Y20.1375 I1.46 J2.2578
G1 F100.0 X-2.5669 Y20.3899
G3 F80.0 X-2.6536 Y22.1876 I-1.8831 J0.8101
G3 X-2.7074 Y22.2724 I-0.701 J-0.3854
G1 X-2.8916 Y22.5259
G3 X-2.9556 Y22.6033 I-0.6472 J-0.4702
G3 X-3.6803 Y23.1 I-1.4944 J-1.4033
G1 X6.55
G1 Y14.0
G1 X-6.55
G1 Y23.1
G1 X-5.2197
G3 X-2.5669 Y20.3899 I0.7697 J-1.9
G0 Z3.0
G0 X1.5473 Y18.62
G1 F100.0 Z-3.0
G1 F80.0 X2.07
G1 Y18.48
G1 X1.4851
G3 X1.5473 Y18.62 I-5.9351 J2.72
G1 F100.0 X0.9594 Y18.8729
G3 F80.0 X1.11 Y19.26 I-5.4094 J2.3271
G1 X2.71
G1 Y17.84
G1 X0.386
G3 X0.9594 Y18.8729 I-4.836 J3.36
G1 F100.0 X0.3715 Y19.1258
G3 F80.0 X0.6352 Y19.9 I-4.8215 J2.0742
G1 X3.35
G1 Y17.2
G1 X-1.0516
G3 X0.3715 Y19.1258 I-3.3984 J4.0
G1 F100.0 X-0.2164 Y19.3787
G3 F80.0 X0.1112 Y20.54 I-4.2336 J1.8213
G1 X3.99
G1 Y16.56
G1 X-3.99
G1 Y16.6143
G3 X-0.2164 Y19.3787 I-0.46 J4.5857
G1 F100.0 X-0.8043 Y19.6317
G3 F80.0 X-0.4813 Y21.18 I-3.6457 J1.5683
G1 X4.63
G1 Y15.92
G1 X-4.63
G1 Y17.2354
G3 X-0.8043 Y19.6317 I0.18 J3.9646
G1 F100.0 X-1.3922 Y19.8846
G3 F80.0 X-1.1795 Y21.82 I-3.0578 J1.3154
G1 X5.27
G1 Y15.28
G1 X-5.27
G1 Y17.9739
G3 X-1.3922 Y19.8846 I0.82 J3.2261
G1 F100.0 X-1.9801 Y20.1375
G3 F80.0 X-2.0748 Y22.46 I-2.4699 J1.0625
G1 X5.91
G1 Y14.64
G1 X-5.91
G1 Y18.9423
G3 X-1.9801 Y20.1375 I1.46 J2.2578
G1 F100.0 X-2.5669 Y20.3899
G3 F80.0 X-2.6536 Y22.1876 I-1.8831 J0.8101
G3 X-2.7074 Y22.2724 I-0.701 J-0.3854
G1 X-2.8916 Y22.5259
G3 X-2.9556 Y22.6033 I-0.6472 J-0.4702
G3 X-3.6803 Y23.1 I-1.4944 J-1.4033
G1 X6.55
G1 Y14.0
G1 X-6.55
G1 Y23.1
G1 X-5.2197
G3 X-2.5669 Y20.3899 I0.7697 J-1.9
G0 Z3.0
G0 X1.5473 Y18.62
G1 F100.0 Z-4.0
G1 F80.0 X2.07
G1 Y18.48
G1 X1.4851
G3 X1.5473 Y18.62 I-5.9351 J2.72
G1 F100.0 X0.9594 Y18.8729
G3 F80.0 X1.11 Y19.26 I-5.4094 J2.3271
G1 X2.71
G1 Y17.84
G1 X0.386
G3 X0.9594 Y18.8729 I-4.836 J3.36
G1 F100.0 X0.3715 Y19.1258
G3 F80.0 X0.6352 Y19.9 I-4.8215 J2.0742
G1 X3.35
G1 Y17.2
G1 X-1.0516
G3 X0.3715 Y19.1258 I-3.3984 J4.0
G1 F100.0 X-0.2164 Y19.3787
G3 F80.0 X0.1112 Y20.54 I-4.2336 J1.8213
G1 X3.99
G1 Y16.56
G1 X-3.99
G1 Y16.6143
G3 X-0.2164 Y19.3787 I-0.46 J4.5857
G1 F100.0 X-0.8043 Y19.6317
G3 F80.0 X-0.4813 Y21.18 I-3.6457 J1.5683
G1 X4.63
G1 Y15.92
G1 X-4.63
G1 Y17.2354
G3 X-0.8043 Y19.6317 I0.18 J3.9646
G1 F100.0 X-1.3922 Y19.8846
G3 F80.0 X-1.1795 Y21.82 I-3.0578 J1.3154
G1 X5.27
G1 Y15.28
G1 X-5.27
G1 Y17.9739
G3 X-1.3922 Y19.8846 I0.82 J3.2261
G1 F100.0 X-1.9801 Y20.1375
G3 F80.0 X-2.0748 Y22.46 I-2.4699 J1.0625
G1 X5.91
G1 Y14.64
G1 X-5.91
G1 Y18.9423
G3 X-1.9801 Y20.1375 I1.46 J2.2578
G1 F100.0 X-2.5669 Y20.3899
G3 F80.0 X-2.6536 Y22.1876 I-1.8831 J0.8101
G3 X-2.7074 Y22.2724 I-0.701 J-0.3854
G1 X-2.8916 Y22.5259
G3 X-2.9556 Y22.6033 I-0.6472 J-0.4702
G3 X-3.6803 Y23.1 I-1.4944 J-1.4033
G1 X6.55
G1 Y14.0
G1 X-6.55
G1 Y23.1
G1 X-5.2197
G3 X-2.5669 Y20.3899 I0.7697 J-1.9
G0 Z3.0
G0 X1.5473 Y18.62
G1 F100.0 Z-4.5
G1 F80.0 X2.07
G1 Y18.48
G1 X1.4851
G3 X1.5473 Y18.62 I-5.9351 J2.72
G1 F100.0 X0.9594 Y18.8729
G3 F80.0 X1.11 Y19.26 I-5.4094 J2.3271
G1 X2.71
G1 Y17.84
G1 X0.386
G3 X0.9594 Y18.8729 I-4.836 J3.36
G1 F100.0 X0.3715 Y19.1258
G3 F80.0 X0.6352 Y19.9 I-4.8215 J2.0742
G1 X3.35
G1 Y17.2
G1 X-1.0516
G3 X0.3715 Y19.1258 I-3.3984 J4.0
G1 F100.0 X-0.2164 Y19.3787
G3 F80.0 X0.1112 Y20.54 I-4.2336 J1.8213
G1 X3.99
G1 Y16.56
G1 X-3.99
G1 Y16.6143
G3 X-0.2164 Y19.3787 I-0.46 J4.5857
G1 F100.0 X-0.8043 Y19.6317
G3 F80.0 X-0.4813 Y21.18 I-3.6457 J1.5683
G1 X4.63
G1 Y15.92
G1 X-4.63
G1 Y17.2354
G3 X-0.8043 Y19.6317 I0.18 J3.9646
G1 F100.0 X-1.3922 Y19.8846
G3 F80.0 X-1.1795 Y21.82 I-3.0578 J1.3154
G1 X5.27
G1 Y15.28
G1 X-5.27
G1 Y17.9739
G3 X-1.3922 Y19.8846 I0.82 J3.2261
G1 F100.0 X-1.9801 Y20.1375
G3 F80.0 X-2.0748 Y22.46 I-2.4699 J1.0625
G1 X5.91
G1 Y14.64
G1 X-5.91
G1 Y18.9423
G3 X-1.9801 Y20.1375 I1.46 J2.2578
G1 F100.0 X-2.5669 Y20.3899
G3 F80.0 X-2.6536 Y22.1876 I-1.8831 J0.8101
G3 X-2.7074 Y22.2724 I-0.701 J-0.3854
G1 X-2.8916 Y22.5259
G3 X-2.9556 Y22.6033 I-0.6472 J-0.4702
G3 X-3.6803 Y23.1 I-1.4944 J-1.4033
G1 X6.55
G1 Y14.0
G1 X-6.55
G1 Y23.1
G1 X-5.2197
G3 X-2.5669 Y20.3899 I0.7697 J-1.9
G0 Z3.0
M5
M30
